!!!!SEGMENT: pl-wtm--r-1542--001-006_stefani-jozef--msza-in-es-no-3-sanctus.krn
!!!cenid: 18xx:1782
!!!COM: Stefani, Józef
!!!COM-rismID: pe30024097
!!!CDT: 1800/04/16-1876/03/19
!!!CNT: Polish
!!!OPR: Msza in Es No 3
!!!OTL: Sanctus
!!!OMV: 006
!!!PDT:
!!!AGN: Sacred; Mass
!!!SMS-siglum: PL-Wtm
!!!SMS-shelfmark: R 1542
!!!SMS-shelfwork: 001-006 M
!!!SMS-variant:
!!!SMS-altvar:
!!!NIFC-rismSourceID: 1001120488
!!!NIFC-rismChildID: 1001120488
!!!NIFC-islandoraID: pl-wtm:26423
!!!URL-pdf-islandora: https://repozytorium.nifc.pl/islandora/object/pl-wtm%3A26423/datastream/PDF/view
!!!URL-scan: https://polish.musicsources.pl/pl/lokalizacje/galeria/rekopisy/6343 @EN{Scan on Polish Music Sources Website} @PL{Skany w portalu Dziedzictwo Muzyki Polskiej w otwartym dostępie}
!!!IIIF:
!!!ONB-nifc: UWAGA: części Mszy: 1. Kyrie, 2. Gloria, 3. Graduale, 4. Credo, 5. Offertorium, 6. Sanctus, 7. Benedictus, 8. Agnus Dei
!!!AIN: 1 alto 1 cbass 1 cello 1 clars 1 cor 1 empty 1 fagot 1 flt 1 oboe 1 soprn 1 tenor 1 timpa 1 tromp 3 tromt 1 viola 2 violn
!!!key:
**kern	**dynam	**kern	**text	**dynam	**kern	**text	**dynam	**kern	**dynam	**kern	**text	**dynam	**kern	**dynam	**kern	**dynam	**kern	**dynam	**kern	**dynam	**kern	**dynam	**kern	**dynam	**kern	**dynam	**kern	**dynam	**kern	**dynam	**kern	**dynam	**kern	**dynam	**kern	**dynam	**kern	**dynam
*part18	*part18	*part17	*part17	*part17	*part16	*part16	*part16	*part15	*part15	*part14	*part14	*part14	*part13	*part13	*part12	*part12	*part11	*part11	*part10	*part10	*part9	*part9	*part8	*part8	*part7	*part7	*part6	*part6	*part5	*part5	*part4	*part4	*part3	*part3	*part2	*part2	*part1	*part1
*staff18	*	*staff17	*staff17	*	*staff16	*staff16	*	*staff15	*	*staff14	*staff14	*	*staff13	*	*staff12	*	*staff11	*	*staff10	*	*staff9	*	*staff8	*	*staff7	*	*staff6	*	*staff5	*	*staff4	*	*staff3	*	*staff2	*	*staff1	*
*Icello&Icbass	*	*Iempty	*	*	*Itenor	*	*	*Ialto	*	*Isoprn	*	*	*Iviola	*	*Ivioln	*	*Ivioln	*	*Itromt	*	*Itromt	*	*Itromt	*	*Itimpa	*	*Itromp	*	*Ifagot	*	*Icor	*	*Iclars	*	*Ioboe	*	*Iflt	*
*I"V(iolon):celli C(ontra):Basſi	*	*I"Baſso	*	*	*I"Tenore	*	*	*I"Alto	*	*I"Soprano	*	*	*I"Viole	*	*I"[Violini]	*	*I"Violini	*	*I"[Tromboni]	*	*I"[Tromboni]	*	*I"Tromboni	*	*I"Timpani F. B.	*	*I"Trombe in B.	*	*I"Fagotti	*	*I"Corni in Es	*	*I"Clarinetti in B	*	*I"Oboe	*	*I"Flautti	*
*I'vc b	*	*I'B	*	*	*I'T	*	*	*I'A	*	*I'S	*	*	*I'vle	*	*I'vn	*	*I'vn	*	*I'trbn	*	*I'trbn	*	*I'trbn	*	*I'timp	*	*I'tr	*	*I'fg	*	*I'cor	*	*I'cl	*	*I'ob	*	*I'fl	*
*	*	*	*	*	*oclefC3	*	*	*	*	*	*	*	*	*	*	*	*	*	*	*	*	*	*	*	*	*	*	*	*	*	*	*	*	*	*	*	*	*
*clefF4	*	*clefF4	*	*	*clefC4	*	*	*clefG2	*	*clefG2	*	*	*clefC3	*	*clefG2	*	*clefG2	*	*clefF4	*	*clefC4	*	*clefC3	*	*clefF4	*	*clefG2	*	*clefF4	*	*clefG2	*	*clefG2	*	*clefG2	*	*clefG2	*
*	*	*	*	*	*	*	*	*	*	*	*	*	*	*	*	*	*	*	*	*	*	*	*	*	*	*	*	*	*	*	*ITrd5c9	*	*ITrd1c2	*	*	*	*	*
*k[b-e-a-]	*	*k[b-e-a-]	*	*	*k[b-e-a-]	*	*	*k[b-e-a-]	*	*k[b-e-a-]	*	*	*k[b-e-a-]	*	*k[b-e-a-]	*	*k[b-e-a-]	*	*k[b-e-a-]	*	*k[b-e-a-]	*	*k[b-e-a-]	*	*k[}	*	*k[b-e-a-]	*	*k[b-e-a-]	*	*k[b-e-a-]	*	*k[b-e-a-]	*	*k[b-e-a-]	*	*k[b-e-a-]	*
*E-:	*	*E-:	*	*	*E-:	*	*	*E-:	*	*E-:	*	*	*E-:	*	*E-:	*	*E-:	*	*E-:	*	*E-:	*	*E-:	*	*k[}	*	*E-:	*	*E-:	*	*E-:	*	*E-:	*	*E-:	*	*E-:	*
*M4/4	*	*M4/4	*	*	*M4/4	*	*	*M4/4	*	*M4/4	*	*	*M4/4	*	*M4/4	*	*M4/4	*	*M4/4	*	*M4/4	*	*M4/4	*	*M4/4	*	*M4/4	*	*M4/4	*	*M4/4	*	*M4/4	*	*M4/4	*	*M4/4	*
*met(c)	*	*met(c)	*	*	*met(c)	*	*	*met(c)	*	*met(c)	*	*	*met(c)	*	*met(c)	*	*met(c)	*	*met(c)	*	*met(c)	*	*met(c)	*	*met(c)	*	*met(c)	*	*met(c)	*	*met(c)	*	*met(c)	*	*met(c)	*	*met(c)	*
=1	=1	=1	=1	=1	=1	=1	=1	=1	=1	=1	=1	=1	=1	=1	=1	=1	=1	=1	=1	=1	=1	=1	=1	=1	=1	=1	=1	=1	=1	=1	=1	=1	=1	=1	=1	=1	=1	=1
!!LO:TX:t=P:problem:all\right
!	!	!	!	!	!LO:TX:t=P:problem=w źródle klucz C3, nuty w kluczu C4	!	!	!	!	!	!	!	!	!	!	!	!	!	!	!	!	!	!	!	!	!	!	!	!	!	!	!	!	!	!	!	!LO:TX:a:t=adagio.	!
!	!	!	!	!	!	!	!	!	!	!	!	!	!	!	!	!	!	!	!	!	!	!	!	!	!	!	!LO:TX:t=P:problem=nazwa instr.transponującego, nuty w tonacji oryginalnej	!	!	!	!	!	!	!	!	!	!LO:TX:a:i:t=Sanctus.	!
1r	.	1r	.	.	1r	.	.	1r	.	1r	.	.	1r	.	1r	.	1r	.	1r	.	1r	.	1r	.	1r	.	4b-\	.	1r	.	4BB-/ 4B-	.	1r	.	4r	p	1r	.
.	.	.	.	.	.	.	.	.	.	.	.	.	.	.	.	.	.	.	.	.	.	.	.	.	.	.	8.b-\L	.	.	.	8.BB-/L 8.B-	.	.	.	8.ff\L 8.aa-	.	.	.
.	.	.	.	.	.	.	.	.	.	.	.	.	.	.	.	.	.	.	.	.	.	.	.	.	.	.	16b-\Jk	.	.	.	16BB-/Jk 16B-	.	.	.	16ff\Jk 16aa-	.	.	.
.	.	.	.	.	.	.	.	.	.	.	.	.	.	.	.	.	.	.	.	.	.	.	.	.	.	.	4b-\	.	.	.	4BB-/ 4B-	.	.	.	4ee-\ 4gg	.	.	.
.	.	.	.	.	.	.	.	.	.	.	.	.	.	.	.	.	.	.	.	.	.	.	.	.	.	.	4b-\	.	.	.	4BB-/ 4B-	.	.	.	4dd\ 4ff	.	.	.
=2	=2	=2	=2	=2	=2	=2	=2	=2	=2	=2	=2	=2	=2	=2	=2	=2	=2	=2	=2	=2	=2	=2	=2	=2	=2	=2	=2	=2	=2	=2	=2	=2	=2	=2	=2	=2	=2	=2
*	*	*	*	*	*	*	*	*	*	*	*	*	*^	*	*	*	*	*	*	*	*	*	*	*	*	*	*	*	*	*	*	*	*^	*	*	*	*	*
*tremolo	*	*	*	*	*	*	*	*	*	*	*	*	*tremolo	*	*	*tremolo	*	*tremolo	*	*	*	*	*	*	*	*	*	*	*	*	*	*	*	*	*	*	*	*	*	*
*2\right	*	*2\right	*	*	*2\right	*	*	*	*	*	*	*	*	*	*	*	*	*tremolo	*	*	*	*	*	*	*	*	*	*	*	*2\right	*	*	*	*	*2\right	*	*2\right	*	*	*
!	!	!	!	!	!	!	!	!	!	!	!	!LO:DY:b	!	!	!	!	!	!	!	!	!	!	!	!	!	!	!	!	!	!	!	!	!	!	!	!	!	!	!	!
32E-\LLL	p	(2E-\	.	.	2B-\	Świę-	.	(2e-/	.	(2g/	Świę-	p	32e-/LLL	32B-LLL	.	32e-/LLL	.	(32g/LLL	p	1r	.	1r	.	1r	.	1r	.	1r	.	2E-\ 2e-	.	2E-/ 2e-	.	1b-	2g\	.	2ee-\ 2gg	.	1r	.
32E-\	.	.	.	.	.	.	.	.	.	.	.	.	32e-/	32B-	.	32e-/	.	32g/	.	.	.	.	.	.	.	.	.	.	.	.	.	.	.	.	.	.	.	.	.	.
32E-\	.	.	.	.	.	.	.	.	.	.	.	.	32e-/	32B-	.	32e-/	.	32g/	.	.	.	.	.	.	.	.	.	.	.	.	.	.	.	.	.	.	.	.	.	.
32E-\	.	.	.	.	.	.	.	.	.	.	.	.	32e-/	32B-	.	32e-/	.	32g/	.	.	.	.	.	.	.	.	.	.	.	.	.	.	.	.	.	.	.	.	.	.
32E-\	.	.	.	.	.	.	.	.	.	.	.	.	32e-/	32B-	.	32e-/	.	32g/	.	.	.	.	.	.	.	.	.	.	.	.	.	.	.	.	.	.	.	.	.	.
32E-\	.	.	.	.	.	.	.	.	.	.	.	.	32e-/	32B-	.	32e-/	.	32g/	.	.	.	.	.	.	.	.	.	.	.	.	.	.	.	.	.	.	.	.	.	.
32E-\	.	.	.	.	.	.	.	.	.	.	.	.	32e-/	32B-	.	32e-/	.	32g/	.	.	.	.	.	.	.	.	.	.	.	.	.	.	.	.	.	.	.	.	.	.
32E-\	.	.	.	.	.	.	.	.	.	.	.	.	32e-/	32B-	.	32e-/	.	32g/	.	.	.	.	.	.	.	.	.	.	.	.	.	.	.	.	.	.	.	.	.	.
32E-\	.	.	.	.	.	.	.	.	.	.	.	.	32e-/	32B-	.	32e-/	.	32g/	.	.	.	.	.	.	.	.	.	.	.	.	.	.	.	.	.	.	.	.	.	.
32E-\	.	.	.	.	.	.	.	.	.	.	.	.	32e-/	32B-	.	32e-/	.	32g/	.	.	.	.	.	.	.	.	.	.	.	.	.	.	.	.	.	.	.	.	.	.
32E-\	.	.	.	.	.	.	.	.	.	.	.	.	32e-/	32B-	.	32e-/	.	32g/	.	.	.	.	.	.	.	.	.	.	.	.	.	.	.	.	.	.	.	.	.	.
32E-\	.	.	.	.	.	.	.	.	.	.	.	.	32e-/	32B-	.	32e-/	.	32g/	.	.	.	.	.	.	.	.	.	.	.	.	.	.	.	.	.	.	.	.	.	.
32E-\	.	.	.	.	.	.	.	.	.	.	.	.	32e-/	32B-	.	32e-/	.	32g/	.	.	.	.	.	.	.	.	.	.	.	.	.	.	.	.	.	.	.	.	.	.
32E-\	.	.	.	.	.	.	.	.	.	.	.	.	32e-/	32B-	.	32e-/	.	32g/	.	.	.	.	.	.	.	.	.	.	.	.	.	.	.	.	.	.	.	.	.	.
32E-\	.	.	.	.	.	.	.	.	.	.	.	.	32e-/	32B-	.	32e-/	.	32g/	.	.	.	.	.	.	.	.	.	.	.	.	.	.	.	.	.	.	.	.	.	.
32E-\JJJ	.	.	.	.	.	.	.	.	.	.	.	.	32e-/JJJ	32B-	.	32e-/JJJ	.	32g/JJJ	.	.	.	.	.	.	.	.	.	.	.	.	.	.	.	.	.	.	.	.	.	.
.	.	8qD/	.	.	.	.	.	8qf/)	.	16qqb-/	.	.	.	.	.	.	.	.	.	.	.	.	.	.	.	.	.	.	.	.	.	.	.	.	.	.	.	.	.	.
32D\LLL	.	4.D\)	.	.	4.B-\	-ty!	.	4.f/	.	4.b-/)	-ty!	.	32d/LLL	32B-	.	32f/LLL	.	32a-/LLL	.	.	.	.	.	.	.	.	.	.	.	2D\ 2d	.	2B-/ 2f	.	.	2f\	.	2ff\ 2bb-	.	.	.
32D\	.	.	.	.	.	.	.	.	.	.	.	.	32d/	32B-	.	32f/	.	32a-/	.	.	.	.	.	.	.	.	.	.	.	.	.	.	.	.	.	.	.	.	.	.
32D\	.	.	.	.	.	.	.	.	.	.	.	.	32d/	32B-	.	32f/	.	32a-/	.	.	.	.	.	.	.	.	.	.	.	.	.	.	.	.	.	.	.	.	.	.
32D\	.	.	.	.	.	.	.	.	.	.	.	.	32d/	32B-	.	32f/	.	32a-/	.	.	.	.	.	.	.	.	.	.	.	.	.	.	.	.	.	.	.	.	.	.
32D\	.	.	.	.	.	.	.	.	.	.	.	.	32d/	32B-	.	32f/	.	32a-/	.	.	.	.	.	.	.	.	.	.	.	.	.	.	.	.	.	.	.	.	.	.
32D\	.	.	.	.	.	.	.	.	.	.	.	.	32d/	32B-	.	32f/	.	32a-/	.	.	.	.	.	.	.	.	.	.	.	.	.	.	.	.	.	.	.	.	.	.
32D\	.	.	.	.	.	.	.	.	.	.	.	.	32d/	32B-	.	32f/	.	32a-/	.	.	.	.	.	.	.	.	.	.	.	.	.	.	.	.	.	.	.	.	.	.
32D\	.	.	.	.	.	.	.	.	.	.	.	.	32d/	32B-	.	32f/	.	32a-/	.	.	.	.	.	.	.	.	.	.	.	.	.	.	.	.	.	.	.	.	.	.
32D\	.	.	.	.	.	.	.	.	.	.	.	.	32d/	32B-	.	32f/	.	32a-/	.	.	.	.	.	.	.	.	.	.	.	.	.	.	.	.	.	.	.	.	.	.
32D\	.	.	.	.	.	.	.	.	.	.	.	.	32d/	32B-	.	32f/	.	32a-/	.	.	.	.	.	.	.	.	.	.	.	.	.	.	.	.	.	.	.	.	.	.
32D\	.	.	.	.	.	.	.	.	.	.	.	.	32d/	32B-	.	32f/	.	32a-/	.	.	.	.	.	.	.	.	.	.	.	.	.	.	.	.	.	.	.	.	.	.
32D\	.	.	.	.	.	.	.	.	.	.	.	.	32d/	32B-	.	32f/	.	32a-/	.	.	.	.	.	.	.	.	.	.	.	.	.	.	.	.	.	.	.	.	.	.
32D\	.	8r	.	.	8r	.	.	8r	.	8r	.	.	32d/	32B-	.	32f/	.	32a-/	.	.	.	.	.	.	.	.	.	.	.	.	.	.	.	.	.	.	.	.	.	.
32D\	.	.	.	.	.	.	.	.	.	.	.	.	32d/	32B-	.	32f/	.	32a-/	.	.	.	.	.	.	.	.	.	.	.	.	.	.	.	.	.	.	.	.	.	.
32D\	.	.	.	.	.	.	.	.	.	.	.	.	32d/	32B-	.	32f/	.	32a-/	.	.	.	.	.	.	.	.	.	.	.	.	.	.	.	.	.	.	.	.	.	.
32D\JJJ	.	.	.	.	.	.	.	.	.	.	.	.	32d/JJJ	32B-JJJ	.	32f/JJJ	.	32a-/)JJJ	.	.	.	.	.	.	.	.	.	.	.	.	.	.	.	.	.	.	.	.	.	.
*	*	*	*	*	*	*	*	*	*	*	*	*	*v	*v	*	*	*	*	*	*	*	*	*	*	*	*	*	*	*	*	*	*	*	*	*	*	*	*	*	*
=3	=3	=3	=3	=3	=3	=3	=3	=3	=3	=3	=3	=3	=3	=3	=3	=3	=3	=3	=3	=3	=3	=3	=3	=3	=3	=3	=3	=3	=3	=3	=3	=3	=3	=3	=3	=3	=3	=3	=3
*	*	*	*	*	*	*	*	*	*	*	*	*	*	*	*	*	*	*	*	*	*	*	*	*	*	*	*^	*	*	*	*^	*	*	*	*	*^	*	*	*
*	*	*	*	*	*	*	*	*	*	*2\right	*	*	*	*	*	*	*2\right	*	*	*	*	*	*	*	*	*	*	*	*	*	*	*	*2\right	*	*	*	*	*	*	*	*2\right	*
32C\LLL	.	(2C\	.	.	2c\	Świę-	.	(2g/	.	(2ee-\	Świę-	.	32cLLL	.	32g/LLL	.	32ee-\LLL	.	1r	.	1r	.	1r	.	1r	.	2r	2ryy	.	2C\ [2c	.	2g/	2e-\	.	2cc/	2g\	.	2gg/	[>2ee-\	.	(2eee-\	p
32C\	.	.	.	.	.	.	.	.	.	.	.	.	32c	.	32g/	.	32ee-\	.	.	.	.	.	.	.	.	.	.	.	.	.	.	.	.	.	.	.	.	.	.	.	.	.
32C\	.	.	.	.	.	.	.	.	.	.	.	.	32c	.	32g/	.	32ee-\	.	.	.	.	.	.	.	.	.	.	.	.	.	.	.	.	.	.	.	.	.	.	.	.	.
32C\	.	.	.	.	.	.	.	.	.	.	.	.	32c	.	32g/	.	32ee-\	.	.	.	.	.	.	.	.	.	.	.	.	.	.	.	.	.	.	.	.	.	.	.	.	.
32C\	.	.	.	.	.	.	.	.	.	.	.	.	32c	.	32g/	.	32ee-\	.	.	.	.	.	.	.	.	.	.	.	.	.	.	.	.	.	.	.	.	.	.	.	.	.
32C\	.	.	.	.	.	.	.	.	.	.	.	.	32c	.	32g/	.	32ee-\	.	.	.	.	.	.	.	.	.	.	.	.	.	.	.	.	.	.	.	.	.	.	.	.	.
32C\	.	.	.	.	.	.	.	.	.	.	.	.	32c	.	32g/	.	32ee-\	.	.	.	.	.	.	.	.	.	.	.	.	.	.	.	.	.	.	.	.	.	.	.	.	.
32C\	.	.	.	.	.	.	.	.	.	.	.	.	32c	.	32g/	.	32ee-\	.	.	.	.	.	.	.	.	.	.	.	.	.	.	.	.	.	.	.	.	.	.	.	.	.
32C\	.	.	.	.	.	.	.	.	.	.	.	.	32c	.	32g/	.	32ee-\	.	.	.	.	.	.	.	.	.	.	.	.	.	.	.	.	.	.	.	.	.	.	.	.	.
32C\	.	.	.	.	.	.	.	.	.	.	.	.	32c	.	32g/	.	32ee-\	.	.	.	.	.	.	.	.	.	.	.	.	.	.	.	.	.	.	.	.	.	.	.	.	.
32C\	.	.	.	.	.	.	.	.	.	.	.	.	32c	.	32g/	.	32ee-\	.	.	.	.	.	.	.	.	.	.	.	.	.	.	.	.	.	.	.	.	.	.	.	.	.
32C\	.	.	.	.	.	.	.	.	.	.	.	.	32c	.	32g/	.	32ee-\	.	.	.	.	.	.	.	.	.	.	.	.	.	.	.	.	.	.	.	.	.	.	.	.	.
32C\	.	.	.	.	.	.	.	.	.	.	.	.	32c	.	32g/	.	32ee-\	.	.	.	.	.	.	.	.	.	.	.	.	.	.	.	.	.	.	.	.	.	.	.	.	.
32C\	.	.	.	.	.	.	.	.	.	.	.	.	32c	.	32g/	.	32ee-\	.	.	.	.	.	.	.	.	.	.	.	.	.	.	.	.	.	.	.	.	.	.	.	.	.
32C\	.	.	.	.	.	.	.	.	.	.	.	.	32c	.	32g/	.	32ee-\	.	.	.	.	.	.	.	.	.	.	.	.	.	.	.	.	.	.	.	.	.	.	.	.	.
32C\JJJ	.	.	.	.	.	.	.	.	.	.	.	.	32c	.	32g/JJJ	.	32ee-\JJJ	.	.	.	.	.	.	.	.	.	.	.	.	.	.	.	.	.	.	.	.	.	.	.	.	.
.	.	8qF/)	.	.	.	.	.	8qe-/	.	8qan/	.	.	.	.	.	.	.	.	.	.	.	.	.	.	.	.	.	.	.	.	.	.	.	.	.	.	.	.	.	.	.	.
*	*	*	*	*	*	*	*	*	*	*	*	*	*	*	*	*	*	*	*	*	*	*	*	*	*	*	*	*2\right	*	*	*	*	*	*	*	*	*	*	*	*	*	*
32F\LLL	.	4.F\	.	.	4.c\	-ty!	.	4.e-/)	.	4.a/)	-ty!	.	32c	.	32e-/LLL	.	32an/LLL	.	.	.	.	.	.	.	.	.	2cc/	2f\	.	2F\ 2c]	.	2f/	2f\	.	2a/	2e-\	.	2aan/	2ee-\]	.	2aan\)	.
32F\	.	.	.	.	.	.	.	.	.	.	.	.	32c	.	32e-/	.	32an/	.	.	.	.	.	.	.	.	.	.	.	.	.	.	.	.	.	.	.	.	.	.	.	.	.
32F\	.	.	.	.	.	.	.	.	.	.	.	.	32c	.	32e-/	.	32an/	.	.	.	.	.	.	.	.	.	.	.	.	.	.	.	.	.	.	.	.	.	.	.	.	.
32F\	.	.	.	.	.	.	.	.	.	.	.	.	32c	.	32e-/	.	32an/	.	.	.	.	.	.	.	.	.	.	.	.	.	.	.	.	.	.	.	.	.	.	.	.	.
32F\	.	.	.	.	.	.	.	.	.	.	.	.	32c	.	32e-/	.	32an/	.	.	.	.	.	.	.	.	.	.	.	.	.	.	.	.	.	.	.	.	.	.	.	.	.
32F\	.	.	.	.	.	.	.	.	.	.	.	.	32c	.	32e-/	.	32an/	.	.	.	.	.	.	.	.	.	.	.	.	.	.	.	.	.	.	.	.	.	.	.	.	.
32F\	.	.	.	.	.	.	.	.	.	.	.	.	32c	.	32e-/	.	32an/	.	.	.	.	.	.	.	.	.	.	.	.	.	.	.	.	.	.	.	.	.	.	.	.	.
32F\	.	.	.	.	.	.	.	.	.	.	.	.	32c	.	32e-/	.	32an/	.	.	.	.	.	.	.	.	.	.	.	.	.	.	.	.	.	.	.	.	.	.	.	.	.
32F\	.	.	.	.	.	.	.	.	.	.	.	.	32c	.	32e-/	.	32an/	.	.	.	.	.	.	.	.	.	.	.	.	.	.	.	.	.	.	.	.	.	.	.	.	.
32F\	.	.	.	.	.	.	.	.	.	.	.	.	32c	.	32e-/	.	32an/	.	.	.	.	.	.	.	.	.	.	.	.	.	.	.	.	.	.	.	.	.	.	.	.	.
32F\	.	.	.	.	.	.	.	.	.	.	.	.	32c	.	32e-/	.	32an/	.	.	.	.	.	.	.	.	.	.	.	.	.	.	.	.	.	.	.	.	.	.	.	.	.
32F\	.	.	.	.	.	.	.	.	.	.	.	.	32c	.	32e-/	.	32an/	.	.	.	.	.	.	.	.	.	.	.	.	.	.	.	.	.	.	.	.	.	.	.	.	.
32F\	.	8r	.	.	8r	.	.	8r	.	8r	.	.	32c	.	32e-/	.	32an/	.	.	.	.	.	.	.	.	.	.	.	.	.	.	.	.	.	.	.	.	.	.	.	.	.
32F\	.	.	.	.	.	.	.	.	.	.	.	.	32c	.	32e-/	.	32an/	.	.	.	.	.	.	.	.	.	.	.	.	.	.	.	.	.	.	.	.	.	.	.	.	.
32F\	.	.	.	.	.	.	.	.	.	.	.	.	32c	.	32e-/	.	32an/	.	.	.	.	.	.	.	.	.	.	.	.	.	.	.	.	.	.	.	.	.	.	.	.	.
32F\JJJ	.	.	.	.	.	.	.	.	.	.	.	.	32cJJJ	.	32e-/JJJ	.	32an/JJJ	.	.	.	.	.	.	.	.	.	.	.	.	.	.	.	.	.	.	.	.	.	.	.	.	.
=4	=4	=4	=4	=4	=4	=4	=4	=4	=4	=4	=4	=4	=4	=4	=4	=4	=4	=4	=4	=4	=4	=4	=4	=4	=4	=4	=4	=4	=4	=4	=4	=4	=4	=4	=4	=4	=4	=4	=4	=4	=4	=4
*	*	*	*	*	*	*	*	*	*	*	*	*	*	*	*	*	*	*	*	*	*	*	*	*	*	*	*	*	*	*^	*	*	*	*	*	*	*	*	*	*	*	*
*	*	*	*	*	*	*	*	*	*	*	*	*	*	*	*	*	*	*	*	*	*	*	*	*	*tremolo	*	*	*	*	*	*	*	*	*	*	*	*	*	*	*	*	*	*
!	!	!	!	!LO:DY:a	!	!	!	!	!LO:HP:a	!	!	!LO:DY:a	!	!	!	!	!	!	!	!	!	!	!	!	!	!	!	!	!	!	!	!	!	!	!	!	!	!	!	!	!	!	!
32GLLL	<	1G	.	<[	(2d\	świę-	.	(2d/	<	1b-	świę-	<[	32B-/LLL	<	32d/LLL	.	32g 32b-LLL	<	2r	.	2r	.	2r	.	32RgyLLL	<	2b-/	[2g\	.	2B-/	1G	<	1g	1g	.	[2b-/	2d\	.	1bb-	2dd\	.	1bb-	<[
32G	.	.	.	.	.	.	.	.	.	.	.	.	32B-/	.	32d/	.	32g 32b-	.	.	.	.	.	.	.	32Rg	.	.	.	.	.	.	.	.	.	.	.	.	.	.	.	.	.	.
32G	.	.	.	.	.	.	.	.	.	.	.	.	32B-/	.	32d/	.	32g 32b-	.	.	.	.	.	.	.	32Rg	.	.	.	.	.	.	.	.	.	.	.	.	.	.	.	.	.	.
32G	.	.	.	.	.	.	.	.	.	.	.	.	32B-/	.	32d/	.	32g 32b-	.	.	.	.	.	.	.	32Rg	.	.	.	.	.	.	.	.	.	.	.	.	.	.	.	.	.	.
32G	.	.	.	.	.	.	.	.	.	.	.	.	32B-/	.	32d/	.	32g 32b-	.	.	.	.	.	.	.	32Rg	.	.	.	.	.	.	.	.	.	.	.	.	.	.	.	.	.	.
32G	.	.	.	.	.	.	.	.	.	.	.	.	32B-/	.	32d/	.	32g 32b-	.	.	.	.	.	.	.	32Rg	.	.	.	.	.	.	.	.	.	.	.	.	.	.	.	.	.	.
32G	.	.	.	.	.	.	.	.	.	.	.	.	32B-/	.	32d/	.	32g 32b-	.	.	.	.	.	.	.	32Rg	.	.	.	.	.	.	.	.	.	.	.	.	.	.	.	.	.	.
32G	.	.	.	.	.	.	.	.	.	.	.	.	32B-/	.	32d/	.	32g 32b-	.	.	.	.	.	.	.	32Rg	.	.	.	.	.	.	.	.	.	.	.	.	.	.	.	.	.	.
32G	.	.	.	.	.	.	.	.	.	.	.	.	32B-/	.	32d/	.	32g 32b-	.	.	.	.	.	.	.	32Rg	.	.	.	.	.	.	.	.	.	.	.	.	.	.	.	.	.	.
32G	.	.	.	.	.	.	.	.	.	.	.	.	32B-/	.	32d/	.	32g 32b-	.	.	.	.	.	.	.	32Rg	.	.	.	.	.	.	.	.	.	.	.	.	.	.	.	.	.	.
32G	.	.	.	.	.	.	.	.	.	.	.	.	32B-/	.	32d/	.	32g 32b-	.	.	.	.	.	.	.	32Rg	.	.	.	.	.	.	.	.	.	.	.	.	.	.	.	.	.	.
32G	.	.	.	.	.	.	.	.	.	.	.	.	32B-/	.	32d/	.	32g 32b-	.	.	.	.	.	.	.	32Rg	.	.	.	.	.	.	.	.	.	.	.	.	.	.	.	.	.	.
32G	.	.	.	.	.	.	.	.	.	.	.	.	32B-/	.	32d/	.	32g 32b-	.	.	.	.	.	.	.	32Rg	.	.	.	.	.	.	.	.	.	.	.	.	.	.	.	.	.	.
32G	.	.	.	.	.	.	.	.	.	.	.	.	32B-/	.	32d/	.	32g 32b-	.	.	.	.	.	.	.	32Rg	.	.	.	.	.	.	.	.	.	.	.	.	.	.	.	.	.	.
32G	.	.	.	.	.	.	.	.	.	.	.	.	32B-/	.	32d/	.	32g 32b-	.	.	.	.	.	.	.	32Rg	.	.	.	.	.	.	.	.	.	.	.	.	.	.	.	.	.	.
32G	.	.	.	.	.	.	.	.	.	.	.	.	32B-/JJJ	.	32d/JJJ	.	32g 32b-	.	.	.	.	.	.	.	32Rg	.	.	.	.	.	.	.	.	.	.	.	.	.	.	.	.	.	.
*	*	*	*	*	*	*	*	*	*	*	*	*	*	*	*	*	*	*	*2\right	*	*2\right	*	*2\right	*	*	*	*	*	*	*	*	*	*	*	*	*	*	*	*	*	*	*	*
32G	.	.	.	.	2c\)	.	.	2en/)	[[	.	.	.	32c/LLL	[[	32en/LLL	.	32g 32b-	.	(2G\	<[	2B-\	<[	2en\	<[	32Rg	.	2cc/	2g\]	.	2c/	.	.	.	.	.	2b-/]	2eX\	.	.	2een\	.	.	.
32G	.	.	.	.	.	.	.	.	.	.	.	.	32c/	.	32en/	.	32g 32b-	.	.	.	.	.	.	.	32Rg	.	.	.	.	.	.	.	.	.	.	.	.	.	.	.	.	.	.
32G	.	.	.	.	.	.	.	.	.	.	.	.	32c/	.	32en/	.	32g 32b-	.	.	.	.	.	.	.	32Rg	.	.	.	.	.	.	.	.	.	.	.	.	.	.	.	.	.	.
32G	.	.	.	.	.	.	.	.	.	.	.	.	32c/	.	32en/	.	32g 32b-	.	.	.	.	.	.	.	32Rg	.	.	.	.	.	.	.	.	.	.	.	.	.	.	.	.	.	.
32G	.	.	.	.	.	.	.	.	.	.	.	.	32c/	.	32en/	.	32g 32b-	.	.	.	.	.	.	.	32Rg	.	.	.	.	.	.	.	.	.	.	.	.	.	.	.	.	.	.
32G	.	.	.	.	.	.	.	.	.	.	.	.	32c/	.	32en/	.	32g 32b-	.	.	.	.	.	.	.	32Rg	.	.	.	.	.	.	.	.	.	.	.	.	.	.	.	.	.	.
32G	.	.	.	.	.	.	.	.	.	.	.	.	32c/	.	32en/	.	32g 32b-	.	.	.	.	.	.	.	32Rg	.	.	.	.	.	.	.	.	.	.	.	.	.	.	.	.	.	.
32G	.	.	.	.	.	.	.	.	.	.	.	.	32c/	.	32en/	.	32g 32b-	.	.	.	.	.	.	.	32Rg	.	.	.	.	.	.	.	.	.	.	.	.	.	.	.	.	.	.
32G	.	.	.	.	.	.	.	.	.	.	.	.	32c/	.	32en/	.	32g 32b-	.	.	.	.	.	.	.	32Rg	.	.	.	.	.	.	.	.	.	.	.	.	.	.	.	.	.	.
32G	.	.	.	.	.	.	.	.	.	.	.	.	32c/	.	32en/	.	32g 32b-	.	.	.	.	.	.	.	32Rg	.	.	.	.	.	.	.	.	.	.	.	.	.	.	.	.	.	.
32G	.	.	.	.	.	.	.	.	.	.	.	.	32c/	.	32en/	.	32g 32b-	.	.	.	.	.	.	.	32Rg	.	.	.	.	.	.	.	.	.	.	.	.	.	.	.	.	.	.
32G	.	.	.	.	.	.	.	.	.	.	.	.	32c/	.	32en/	.	32g 32b-	.	.	.	.	.	.	.	32Rg	.	.	.	.	.	.	.	.	.	.	.	.	.	.	.	.	.	.
32G	.	.	.	.	.	.	.	.	.	.	.	.	32c/	.	32en/	.	32g 32b-	.	.	.	.	.	.	.	32Rg	.	.	.	.	.	.	.	.	.	.	.	.	.	.	.	.	.	.
32G	.	.	.	.	.	.	.	.	.	.	.	.	32c/	.	32en/	.	32g 32b-	.	.	.	.	.	.	.	32Rg	.	.	.	.	.	.	.	.	.	.	.	.	.	.	.	.	.	.
32G	.	.	.	.	.	.	.	.	.	.	.	.	32c/	.	32en/	.	32g 32b-	.	.	.	.	.	.	.	32Rg	.	.	.	.	.	.	.	.	.	.	.	.	.	.	.	.	.	.
32GJJJ	[[	.	.	.	.	.	.	.	.	.	.	.	32c/JJJ	.	32en/JJJ	.	32g 32b-JJJ	[[	.	.	.	.	.	.	32RgJJJ	[[	.	.	.	.	.	.	.	.	.	.	.	.	.	.	.	.	.
*Xtremolo	*	*	*	*	*	*	*	*	*	*	*	*	*Xtremolo	*	*Xtremolo	*	*Xtremolo	*	*	*	*	*	*	*	*Xtremolo	*	*	*	*	*	*	*	*	*	*	*	*	*	*	*	*	*	*
*	*	*	*	*	*	*	*	*	*	*	*	*	*	*	*	*	*	*	*	*	*	*	*	*	*	*	*v	*v	*	*	*	*	*	*	*	*	*	*	*	*	*	*	*
=5	=5	=5	=5	=5	=5	=5	=5	=5	=5	=5	=5	=5	=5	=5	=5	=5	=5	=5	=5	=5	=5	=5	=5	=5	=5	=5	=5	=5	=5	=5	=5	=5	=5	=5	=5	=5	=5	=5	=5	=5	=5	=5
4F\	f	4F\	.	.	4c\	-ty!	.	4f/	.	4an/	-ty!	.	4F/ 4c	.	4f/	f	4f/ 4an	.	4F\)	f	4An\	.	4f\	f	4Rdd\	f	4f/ 4cc	.	4c/	4F\	[	4f/	4f\	f	4a/	4f\	.	4aan/	4ff\	.	4aan\	f
4r	.	4r	.	.	4r	.	.	4r	.	4r	.	.	4r	.	4r	.	4r	.	8.F\L	.	8.f\L	.	8.f\L	.	8.Rdd\L	.	8.f\L 8.ff	.	4r	4ryy	.	8.f/L	8.f\L	.	4r	4ryy	.	4r	4ryy	.	4r	.
.	.	.	.	.	.	.	.	.	.	.	.	.	.	.	.	.	.	.	16F\Jk	.	16f\Jk	.	16f\Jk	.	16Rdd\Jk	.	16f\Jk 16ff	.	.	.	.	16f/Jk	16f\Jk	.	.	.	.	.	.	.	.	.
2r	.	2r	.	.	2r	.	.	2r	.	2r	.	.	2r	.	2r	.	2r	.	4F\	.	4f\	.	4f\	.	4Rdd\	.	4f\ 4ff	.	2r	2ryy	.	4f/	4f\	.	2r	2ryy	.	2r	2ryy	.	2r	.
.	.	.	.	.	.	.	.	.	.	.	.	.	.	.	.	.	.	.	4F\	.	4f\	.	4f\	.	4Rdd\	.	4f\ 4ff	.	.	.	.	4f/	4f\	.	.	.	.	.	.	.	.	.
*	*	*	*	*	*	*	*	*	*	*	*	*	*	*	*	*	*	*	*	*	*	*	*	*	*	*	*	*	*	*	*	*	*	*	*v	*v	*	*	*	*	*	*
*	*	*	*	*	*	*	*	*	*	*	*	*	*	*	*	*	*	*	*	*	*	*	*	*	*	*	*	*	*v	*v	*	*	*	*	*	*	*v	*v	*	*	*
!!LO:PB:g=original
=6	=6	=6	=6	=6	=6	=6	=6	=6	=6	=6	=6	=6	=6	=6	=6	=6	=6	=6	=6	=6	=6	=6	=6	=6	=6	=6	=6	=6	=6	=6	=6	=6	=6	=6	=6	=6	=6	=6	=6
*	*	*	*	*	*	*	*	*	*	*	*	*	*2\right	*	*	*	*	*	*	*	*	*	*	*	*	*	*	*	*	*	*	*	*	*	*	*	*	*	*
*	*	*	*	*	*	*	*	*	*	*	*	*	*tremolo	*	*tremolo	*	*tremolo	*	*	*	*	*	*	*	*2\right	*	*	*	*	*	*	*	*	*	*	*	*	*	*
!	!	!	!	!	!	!	!	!	!	!	!	!LO:DY:a	!	!	!LO:TX:t=unis	!	!	!	!	!	!	!	!	!	!	!	!	!	!	!	!	!	!	!	!	!	!	!	!LO:DY:a
2F\	f	2F\	.	.	2f\	Wład-	.	2f/	.	2ff\	Wład-	f	32f\LLL	.	32ff\LLLyy	.	32ff\LLL	.	2F\	f	2f\	.	2f\	f	2Rdd\	.	2f\ 2ff	f	2F\	f	2f/	2f\	.	2ff\	f	2ff\	.	2fff'\	f
.	.	.	.	.	.	.	.	.	.	.	.	.	32f\	.	32ff\yy	.	32ff\	.	.	.	.	.	.	.	.	.	.	.	.	.	.	.	.	.	.	.	.	.	.
.	.	.	.	.	.	.	.	.	.	.	.	.	32f\	.	32ff\yy	.	32ff\	.	.	.	.	.	.	.	.	.	.	.	.	.	.	.	.	.	.	.	.	.	.
.	.	.	.	.	.	.	.	.	.	.	.	.	32f\	.	32ff\yy	.	32ff\	.	.	.	.	.	.	.	.	.	.	.	.	.	.	.	.	.	.	.	.	.	.
.	.	.	.	.	.	.	.	.	.	.	.	.	32f\	.	32ff\yy	.	32ff\	.	.	.	.	.	.	.	.	.	.	.	.	.	.	.	.	.	.	.	.	.	.
.	.	.	.	.	.	.	.	.	.	.	.	.	32f\	.	32ff\yy	.	32ff\	.	.	.	.	.	.	.	.	.	.	.	.	.	.	.	.	.	.	.	.	.	.
.	.	.	.	.	.	.	.	.	.	.	.	.	32f\	.	32ff\yy	.	32ff\	.	.	.	.	.	.	.	.	.	.	.	.	.	.	.	.	.	.	.	.	.	.
.	.	.	.	.	.	.	.	.	.	.	.	.	32f\	.	32ff\yy	.	32ff\	.	.	.	.	.	.	.	.	.	.	.	.	.	.	.	.	.	.	.	.	.	.
.	.	.	.	.	.	.	.	.	.	.	.	.	32f\	.	32ff\yy	.	32ff\	.	.	.	.	.	.	.	.	.	.	.	.	.	.	.	.	.	.	.	.	.	.
.	.	.	.	.	.	.	.	.	.	.	.	.	32f\	.	32ff\yy	.	32ff\	.	.	.	.	.	.	.	.	.	.	.	.	.	.	.	.	.	.	.	.	.	.
.	.	.	.	.	.	.	.	.	.	.	.	.	32f\	.	32ff\yy	.	32ff\	.	.	.	.	.	.	.	.	.	.	.	.	.	.	.	.	.	.	.	.	.	.
.	.	.	.	.	.	.	.	.	.	.	.	.	32f\	.	32ff\yy	.	32ff\	.	.	.	.	.	.	.	.	.	.	.	.	.	.	.	.	.	.	.	.	.	.
.	.	.	.	.	.	.	.	.	.	.	.	.	32f\	.	32ff\yy	.	32ff\	.	.	.	.	.	.	.	.	.	.	.	.	.	.	.	.	.	.	.	.	.	.
.	.	.	.	.	.	.	.	.	.	.	.	.	32f\	.	32ff\yy	.	32ff\	.	.	.	.	.	.	.	.	.	.	.	.	.	.	.	.	.	.	.	.	.	.
.	.	.	.	.	.	.	.	.	.	.	.	.	32f\	.	32ff\yy	.	32ff\	.	.	.	.	.	.	.	.	.	.	.	.	.	.	.	.	.	.	.	.	.	.
.	.	.	.	.	.	.	.	.	.	.	.	.	32f\JJJ	.	32ff\JJJyy	.	32ff\JJJ	.	.	.	.	.	.	.	.	.	.	.	.	.	.	.	.	.	.	.	.	.	.
4d\	.	4d\	.	.	4d\	-sca	.	4dd\	.	4dd\	-ca	.	32dd\LLL	.	32dd\LLLyy	.	32dd\LLL	.	4d\	.	4d\	.	4dd\	.	2r	.	4dd\	.	4d\	.	2r	2ryy	.	4dd\	.	4ddd\	.	4ddd'\	.
.	.	.	.	.	.	.	.	.	.	.	.	.	32dd\	.	32dd\yy	.	32dd\	.	.	.	.	.	.	.	.	.	.	.	.	.	.	.	.	.	.	.	.	.	.
.	.	.	.	.	.	.	.	.	.	.	.	.	32dd\	.	32dd\yy	.	32dd\	.	.	.	.	.	.	.	.	.	.	.	.	.	.	.	.	.	.	.	.	.	.
.	.	.	.	.	.	.	.	.	.	.	.	.	32dd\	.	32dd\yy	.	32dd\	.	.	.	.	.	.	.	.	.	.	.	.	.	.	.	.	.	.	.	.	.	.
.	.	.	.	.	.	.	.	.	.	.	.	.	32dd\	.	32dd\yy	.	32dd\	.	.	.	.	.	.	.	.	.	.	.	.	.	.	.	.	.	.	.	.	.	.
.	.	.	.	.	.	.	.	.	.	.	.	.	32dd\	.	32dd\yy	.	32dd\	.	.	.	.	.	.	.	.	.	.	.	.	.	.	.	.	.	.	.	.	.	.
.	.	.	.	.	.	.	.	.	.	.	.	.	32dd\	.	32dd\yy	.	32dd\	.	.	.	.	.	.	.	.	.	.	.	.	.	.	.	.	.	.	.	.	.	.
.	.	.	.	.	.	.	.	.	.	.	.	.	32dd\JJJ	.	32dd\JJJyy	.	32dd\JJJ	.	.	.	.	.	.	.	.	.	.	.	.	.	.	.	.	.	.	.	.	.	.
4c\	.	4c\	.	.	4c\	za-	.	4cc\	.	4cc\	za-	.	32cc\LLL	.	32cc\LLLyy	.	32cc\LLL	.	4c\	.	4c\	.	4cc\	.	.	.	4cc\	.	4c\	.	.	.	.	4cc\	.	4ccc\	.	4ccc'\	.
.	.	.	.	.	.	.	.	.	.	.	.	.	32cc\	.	32cc\yy	.	32cc\	.	.	.	.	.	.	.	.	.	.	.	.	.	.	.	.	.	.	.	.	.	.
.	.	.	.	.	.	.	.	.	.	.	.	.	32cc\	.	32cc\yy	.	32cc\	.	.	.	.	.	.	.	.	.	.	.	.	.	.	.	.	.	.	.	.	.	.
.	.	.	.	.	.	.	.	.	.	.	.	.	32cc\	.	32cc\yy	.	32cc\	.	.	.	.	.	.	.	.	.	.	.	.	.	.	.	.	.	.	.	.	.	.
.	.	.	.	.	.	.	.	.	.	.	.	.	32cc\	.	32cc\yy	.	32cc\	.	.	.	.	.	.	.	.	.	.	.	.	.	.	.	.	.	.	.	.	.	.
.	.	.	.	.	.	.	.	.	.	.	.	.	32cc\	.	32cc\yy	.	32cc\	.	.	.	.	.	.	.	.	.	.	.	.	.	.	.	.	.	.	.	.	.	.
.	.	.	.	.	.	.	.	.	.	.	.	.	32cc\	.	32cc\yy	.	32cc\	.	.	.	.	.	.	.	.	.	.	.	.	.	.	.	.	.	.	.	.	.	.
.	.	.	.	.	.	.	.	.	.	.	.	.	32cc\JJJ	.	32cc\JJJyy	.	32cc\JJJ	.	.	.	.	.	.	.	.	.	.	.	.	.	.	.	.	.	.	.	.	.	.
*	*	*	*	*	*	*	*	*	*	*	*	*	*	*	*	*	*	*	*	*	*	*	*	*	*	*	*	*	*	*	*v	*v	*	*	*	*	*	*	*
=7	=7	=7	=7	=7	=7	=7	=7	=7	=7	=7	=7	=7	=7	=7	=7	=7	=7	=7	=7	=7	=7	=7	=7	=7	=7	=7	=7	=7	=7	=7	=7	=7	=7	=7	=7	=7	=7	=7
*	*	*	*	*	*	*	*	*2\right	*	*	*	*	*	*	*	*	*	*	*	*	*	*	*	*	*	*	*	*	*	*	*	*	*	*	*	*	*	*
2B-\	.	2B-\	.	.	2B-\	-stę-	.	2b-\	.	2b-\	-stę-	.	32b-\LLL	.	32b-\LLLyy	.	32b-\LLL	.	2B-\	.	2B-\	.	2b-\	.	1r	.	2b-X/	.	2B-\	.	2B-\ 2b-	.	2b-\	.	2bb-\	.	2bb-'\	.
.	.	.	.	.	.	.	.	.	.	.	.	.	32b-\	.	32b-\yy	.	32b-\	.	.	.	.	.	.	.	.	.	.	.	.	.	.	.	.	.	.	.	.	.
.	.	.	.	.	.	.	.	.	.	.	.	.	32b-\	.	32b-\yy	.	32b-\	.	.	.	.	.	.	.	.	.	.	.	.	.	.	.	.	.	.	.	.	.
.	.	.	.	.	.	.	.	.	.	.	.	.	32b-\	.	32b-\yy	.	32b-\	.	.	.	.	.	.	.	.	.	.	.	.	.	.	.	.	.	.	.	.	.
.	.	.	.	.	.	.	.	.	.	.	.	.	32b-\	.	32b-\yy	.	32b-\	.	.	.	.	.	.	.	.	.	.	.	.	.	.	.	.	.	.	.	.	.
.	.	.	.	.	.	.	.	.	.	.	.	.	32b-\	.	32b-\yy	.	32b-\	.	.	.	.	.	.	.	.	.	.	.	.	.	.	.	.	.	.	.	.	.
.	.	.	.	.	.	.	.	.	.	.	.	.	32b-\	.	32b-\yy	.	32b-\	.	.	.	.	.	.	.	.	.	.	.	.	.	.	.	.	.	.	.	.	.
.	.	.	.	.	.	.	.	.	.	.	.	.	32b-\	.	32b-\yy	.	32b-\	.	.	.	.	.	.	.	.	.	.	.	.	.	.	.	.	.	.	.	.	.
.	.	.	.	.	.	.	.	.	.	.	.	.	32b-\	.	32b-\yy	.	32b-\	.	.	.	.	.	.	.	.	.	.	.	.	.	.	.	.	.	.	.	.	.
.	.	.	.	.	.	.	.	.	.	.	.	.	32b-\	.	32b-\yy	.	32b-\	.	.	.	.	.	.	.	.	.	.	.	.	.	.	.	.	.	.	.	.	.
.	.	.	.	.	.	.	.	.	.	.	.	.	32b-\	.	32b-\yy	.	32b-\	.	.	.	.	.	.	.	.	.	.	.	.	.	.	.	.	.	.	.	.	.
.	.	.	.	.	.	.	.	.	.	.	.	.	32b-\	.	32b-\yy	.	32b-\	.	.	.	.	.	.	.	.	.	.	.	.	.	.	.	.	.	.	.	.	.
.	.	.	.	.	.	.	.	.	.	.	.	.	32b-\	.	32b-\yy	.	32b-\	.	.	.	.	.	.	.	.	.	.	.	.	.	.	.	.	.	.	.	.	.
.	.	.	.	.	.	.	.	.	.	.	.	.	32b-\	.	32b-\yy	.	32b-\	.	.	.	.	.	.	.	.	.	.	.	.	.	.	.	.	.	.	.	.	.
.	.	.	.	.	.	.	.	.	.	.	.	.	32b-\	.	32b-\yy	.	32b-\	.	.	.	.	.	.	.	.	.	.	.	.	.	.	.	.	.	.	.	.	.
.	.	.	.	.	.	.	.	.	.	.	.	.	32b-\JJJ	.	32b-\JJJyy	.	32b-\JJJ	.	.	.	.	.	.	.	.	.	.	.	.	.	.	.	.	.	.	.	.	.
2G\	.	2G\	.	.	2G/	-pów	.	2g/	.	2g/	-pów	.	32g\LLL	.	32g/LLLyy	.	32g/LLL	.	2G\	.	2G/	.	2g\	.	.	.	2g/	.	2G\	.	2G/ 2g	.	2g/	.	2gg\	.	2gg'\	.
.	.	.	.	.	.	.	.	.	.	.	.	.	32g\	.	32g/yy	.	32g/	.	.	.	.	.	.	.	.	.	.	.	.	.	.	.	.	.	.	.	.	.
.	.	.	.	.	.	.	.	.	.	.	.	.	32g\	.	32g/yy	.	32g/	.	.	.	.	.	.	.	.	.	.	.	.	.	.	.	.	.	.	.	.	.
.	.	.	.	.	.	.	.	.	.	.	.	.	32g\	.	32g/yy	.	32g/	.	.	.	.	.	.	.	.	.	.	.	.	.	.	.	.	.	.	.	.	.
.	.	.	.	.	.	.	.	.	.	.	.	.	32g\	.	32g/yy	.	32g/	.	.	.	.	.	.	.	.	.	.	.	.	.	.	.	.	.	.	.	.	.
.	.	.	.	.	.	.	.	.	.	.	.	.	32g\	.	32g/yy	.	32g/	.	.	.	.	.	.	.	.	.	.	.	.	.	.	.	.	.	.	.	.	.
.	.	.	.	.	.	.	.	.	.	.	.	.	32g\	.	32g/yy	.	32g/	.	.	.	.	.	.	.	.	.	.	.	.	.	.	.	.	.	.	.	.	.
.	.	.	.	.	.	.	.	.	.	.	.	.	32g\	.	32g/yy	.	32g/	.	.	.	.	.	.	.	.	.	.	.	.	.	.	.	.	.	.	.	.	.
.	.	.	.	.	.	.	.	.	.	.	.	.	32g\	.	32g/yy	.	32g/	.	.	.	.	.	.	.	.	.	.	.	.	.	.	.	.	.	.	.	.	.
.	.	.	.	.	.	.	.	.	.	.	.	.	32g\	.	32g/yy	.	32g/	.	.	.	.	.	.	.	.	.	.	.	.	.	.	.	.	.	.	.	.	.
.	.	.	.	.	.	.	.	.	.	.	.	.	32g\	.	32g/yy	.	32g/	.	.	.	.	.	.	.	.	.	.	.	.	.	.	.	.	.	.	.	.	.
.	.	.	.	.	.	.	.	.	.	.	.	.	32g\	.	32g/yy	.	32g/	.	.	.	.	.	.	.	.	.	.	.	.	.	.	.	.	.	.	.	.	.
.	.	.	.	.	.	.	.	.	.	.	.	.	32g\	.	32g/yy	.	32g/	.	.	.	.	.	.	.	.	.	.	.	.	.	.	.	.	.	.	.	.	.
.	.	.	.	.	.	.	.	.	.	.	.	.	32g\	.	32g/yy	.	32g/	.	.	.	.	.	.	.	.	.	.	.	.	.	.	.	.	.	.	.	.	.
.	.	.	.	.	.	.	.	.	.	.	.	.	32g\	.	32g/yy	.	32g/	.	.	.	.	.	.	.	.	.	.	.	.	.	.	.	.	.	.	.	.	.
.	.	.	.	.	.	.	.	.	.	.	.	.	32g\JJJ	.	32g/JJJyy	.	32g/JJJ	.	.	.	.	.	.	.	.	.	.	.	.	.	.	.	.	.	.	.	.	.
=8	=8	=8	=8	=8	=8	=8	=8	=8	=8	=8	=8	=8	=8	=8	=8	=8	=8	=8	=8	=8	=8	=8	=8	=8	=8	=8	=8	=8	=8	=8	=8	=8	=8	=8	=8	=8	=8	=8
*	*	*	*	*	*	*	*	*	*	*	*	*	*	*	*	*	*	*	*	*	*	*	*	*	*	*	*	*	*	*	*	*	*^	*	*	*	*	*
!	!	!	!	!	!	!	!	!	!	!	!	!	!	!	!	!	!	!LO:HP:a	!	!	!	!	!	!	!	!	!	!	!	!	!	!	!	!	!	!	!LO:HP:a	!	!LO:HP:a
!	!LO:DY:a	!	!	!LO:DY:a	!	!	!	!	!	!	!	!LO:DY:a	!	!	!	!	!	!LO:DY:a	!	!	!	!	!	!	!	!	!	!	!	!LO:DY:a	!	!LO:DY:a	!	!	!	!	!LO:DY:a	!	!LO:DY:a
4.B-\	p <	4.B-\	.	p	4.d\	Pan	.	4.f/	.	4.b-\	Pan	p	32d\LLL	.	32f/LLL	.	32b-\LLL	p <	1r	.	1r	.	1r	.	2r	.	2r	.	4.B-\ 4.d	p	4.B-/ 4.f	p	4.dd\	4.b-\	.	4.ff\ 4.bb-	p <	4.bb-\	p <
!	!	!	!	!LO:HP:b	!	!	!	!	!	!	!	!	!	!	!	!	!	!	!	!	!	!	!	!	!	!	!	!	!	!	!	!	!	!	!	!	!	!	!
.	.	.	.	<	.	.	.	.	.	.	.	.	32d\	.	32f/	.	32b-\	.	.	.	.	.	.	.	.	.	.	.	.	.	.	.	.	.	.	.	.	.	.
.	.	.	.	.	.	.	.	.	.	.	.	.	32d\	.	32f/	.	32b-\	.	.	.	.	.	.	.	.	.	.	.	.	.	.	.	.	.	.	.	.	.	.
.	.	.	.	.	.	.	.	.	.	.	.	.	32d\	.	32f/	.	32b-\	.	.	.	.	.	.	.	.	.	.	.	.	.	.	.	.	.	.	.	.	.	.
.	.	.	.	.	.	.	.	.	.	.	.	.	32d\	.	32f/	.	32b-\	.	.	.	.	.	.	.	.	.	.	.	.	.	.	.	.	.	.	.	.	.	.
.	.	.	.	.	.	.	.	.	.	.	.	.	32d\	.	32f/	.	32b-\	.	.	.	.	.	.	.	.	.	.	.	.	.	.	.	.	.	.	.	.	.	.
.	.	.	.	.	.	.	.	.	.	.	.	.	32d\	.	32f/	.	32b-\	.	.	.	.	.	.	.	.	.	.	.	.	.	.	.	.	.	.	.	.	.	.
.	.	.	.	.	.	.	.	.	.	.	.	.	32d\	.	32f/	.	32b-\	.	.	.	.	.	.	.	.	.	.	.	.	.	.	.	.	.	.	.	.	.	.
.	.	.	.	.	.	.	.	.	.	.	.	.	32d\	.	32f/	.	32b-\	.	.	.	.	.	.	.	.	.	.	.	.	.	.	.	.	.	.	.	.	.	.
.	.	.	.	.	.	.	.	.	.	.	.	.	32d\	.	32f/	.	32b-\	.	.	.	.	.	.	.	.	.	.	.	.	.	.	.	.	.	.	.	.	.	.
.	.	.	.	.	.	.	.	.	.	.	.	.	32d\	.	32f/	.	32b-\	.	.	.	.	.	.	.	.	.	.	.	.	.	.	.	.	.	.	.	.	.	.
.	.	.	.	.	.	.	.	.	.	.	.	.	32d\	.	32f/	.	32b-\	.	.	.	.	.	.	.	.	.	.	.	.	.	.	.	.	.	.	.	.	.	.
!	!	!	!	!	!	!	!	!	!	!	!	!LO:DY:a	!	!	!	!	!	!	!	!	!	!	!	!	!	!	!	!	!	!	!	!	!	!	!	!	!	!	!
8B-\	.	8B-\	.	.	8d\	Bóg	.	8f/	.	8b-\	Bóg	<	32d\	.	32f/	.	32b-\	.	.	.	.	.	.	.	.	.	.	.	8B-\ 8d	.	8B-/ 8f	.	8dd\	8b-\	.	8ff\ 8bb-	.	8bb-\	.
.	.	.	.	.	.	.	.	.	.	.	.	.	32d\	.	32f/	.	32b-\	.	.	.	.	.	.	.	.	.	.	.	.	.	.	.	.	.	.	.	.	.	.
.	.	.	.	.	.	.	.	.	.	.	.	.	32d\	.	32f/	.	32b-\	.	.	.	.	.	.	.	.	.	.	.	.	.	.	.	.	.	.	.	.	.	.
.	.	.	.	.	.	.	.	.	.	.	.	.	32d\	.	32f/	.	32b-\	.	.	.	.	.	.	.	.	.	.	.	.	.	.	.	.	.	.	.	.	.	.
4B-\	.	4B-\	.	.	4d\	nie-	.	4f/	.	4b-\	nie-	.	32d\	.	32f/	.	32b-\	.	.	.	.	.	.	.	4r	.	4r	.	4B-\ 4d	.	4B-/ 4f	.	4dd\	4b-\	.	4ff\ 4bb-	.	4bb-\	.
.	.	.	.	.	.	.	.	.	.	.	.	.	32d\	.	32f/	.	32b-\	.	.	.	.	.	.	.	.	.	.	.	.	.	.	.	.	.	.	.	.	.	.
.	.	.	.	.	.	.	.	.	.	.	.	.	32d\	.	32f/	.	32b-\	.	.	.	.	.	.	.	.	.	.	.	.	.	.	.	.	.	.	.	.	.	.
.	.	.	.	.	.	.	.	.	.	.	.	.	32d\	.	32f/	.	32b-\	.	.	.	.	.	.	.	.	.	.	.	.	.	.	.	.	.	.	.	.	.	.
.	.	.	.	.	.	.	.	.	.	.	.	.	32d\	.	32f/	.	32b-\	.	.	.	.	.	.	.	.	.	.	.	.	.	.	.	.	.	.	.	.	.	.
.	.	.	.	.	.	.	.	.	.	.	.	.	32d\	.	32f/	.	32b-\	.	.	.	.	.	.	.	.	.	.	.	.	.	.	.	.	.	.	.	.	.	.
.	.	.	.	.	.	.	.	.	.	.	.	.	32d\	.	32f/	.	32b-\	.	.	.	.	.	.	.	.	.	.	.	.	.	.	.	.	.	.	.	.	.	.
.	.	.	.	.	.	.	.	.	.	.	.	.	32d\JJJ	.	32f/JJJ	.	32b-\JJJ	.	.	.	.	.	.	.	.	.	.	.	.	.	.	.	.	.	.	.	.	.	.
4F\	[[	4F\	.	[[	4An\	-po-	.	4f/	.	4cc\	-po-	[[	32f\LLL	.	32an/LLL	.	32cc\LLL	[	.	.	.	.	.	.	4Rdd\	<[	4f/ 4cc	.	4F\ 4c	.	4AX/ 4f	.	4cc/	4a\	.	4ff\ 4aan	[	4ccc\	[
.	.	.	.	.	.	.	.	.	.	.	.	.	32f\	.	32an/	.	32cc\	.	.	.	.	.	.	.	.	.	.	.	.	.	.	.	.	.	.	.	.	.	.
.	.	.	.	.	.	.	.	.	.	.	.	.	32f\	.	32an/	.	32cc\	.	.	.	.	.	.	.	.	.	.	.	.	.	.	.	.	.	.	.	.	.	.
.	.	.	.	.	.	.	.	.	.	.	.	.	32f\	.	32an/	.	32cc\	.	.	.	.	.	.	.	.	.	.	.	.	.	.	.	.	.	.	.	.	.	.
.	.	.	.	.	.	.	.	.	.	.	.	.	32f\	.	32an/	.	32cc\	.	.	.	.	.	.	.	.	.	.	.	.	.	.	.	.	.	.	.	.	.	.
.	.	.	.	.	.	.	.	.	.	.	.	.	32f\	.	32an/	.	32cc\	.	.	.	.	.	.	.	.	.	.	.	.	.	.	.	.	.	.	.	.	.	.
.	.	.	.	.	.	.	.	.	.	.	.	.	32f\	.	32an/	.	32cc\	.	.	.	.	.	.	.	.	.	.	.	.	.	.	.	.	.	.	.	.	.	.
.	.	.	.	.	.	.	.	.	.	.	.	.	32f\JJJ	.	32an/JJJ	.	32cc\JJJ	.	.	.	.	.	.	.	.	.	.	.	.	.	.	.	.	.	.	.	.	.	.
=9	=9	=9	=9	=9	=9	=9	=9	=9	=9	=9	=9	=9	=9	=9	=9	=9	=9	=9	=9	=9	=9	=9	=9	=9	=9	=9	=9	=9	=9	=9	=9	=9	=9	=9	=9	=9	=9	=9	=9
*	*	*	*	*	*	*	*	*	*	*	*	*	*	*	*	*	*	*	*	*	*	*	*	*	*	*	*^	*	*	*	*	*	*	*	*	*	*	*	*
*tremolo	*	*	*	*	*	*	*	*	*	*	*	*	*	*	*	*	*	*	*	*	*	*	*	*	*	*	*	*	*	*	*	*	*	*	*	*	*	*	*	*
!	!LO:DY:a	!	!	!LO:DY:a	!	!	!LO:DY:a	!	!LO:DY:a	!	!	!LO:DY:a	!	!	!	!LO:DY:a	!	!LO:DY:a	!	!	!	!	!	!	!	!	!	!	!	!	!LO:DY:a	!	!LO:DY:a	!	!	!LO:DY:a	!	!LO:DY:a	!	!LO:DY:a
32BB-/LLL	f	2BB-/	.	f	2B-\	-ię-	f	2f/	f	2dd\	-ię-	f	32B-\ 32fLLL	f	32b-\LLL	f	32dd\LLL	f	2B-\	f	2d\	.	2f\	f	2RgyTT/	f	2dd/	2b-X\	f	2BB-\ 2d	f	2B-/ 2f	f	2dd/	2b-\	f	2ff\ 2bb-	f	2ddd\	f
32BB-/	.	.	.	.	.	.	.	.	.	.	.	.	32B-\ 32f	.	32b-\	.	32dd\	.	.	.	.	.	.	.	.	.	.	.	.	.	.	.	.	.	.	.	.	.	.	.
32BB-/	.	.	.	.	.	.	.	.	.	.	.	.	32B-\ 32f	.	32b-\	.	32dd\	.	.	.	.	.	.	.	.	.	.	.	.	.	.	.	.	.	.	.	.	.	.	.
32BB-/	.	.	.	.	.	.	.	.	.	.	.	.	32B-\ 32f	.	32b-\	.	32dd\	.	.	.	.	.	.	.	.	.	.	.	.	.	.	.	.	.	.	.	.	.	.	.
32BB-/	.	.	.	.	.	.	.	.	.	.	.	.	32B-\ 32f	.	32b-\	.	32dd\	.	.	.	.	.	.	.	.	.	.	.	.	.	.	.	.	.	.	.	.	.	.	.
32BB-/	.	.	.	.	.	.	.	.	.	.	.	.	32B-\ 32f	.	32b-\	.	32dd\	.	.	.	.	.	.	.	.	.	.	.	.	.	.	.	.	.	.	.	.	.	.	.
32BB-/	.	.	.	.	.	.	.	.	.	.	.	.	32B-\ 32f	.	32b-\	.	32dd\	.	.	.	.	.	.	.	.	.	.	.	.	.	.	.	.	.	.	.	.	.	.	.
32BB-/	.	.	.	.	.	.	.	.	.	.	.	.	32B-\ 32f	.	32b-\	.	32dd\	.	.	.	.	.	.	.	.	.	.	.	.	.	.	.	.	.	.	.	.	.	.	.
32BB-/	.	.	.	.	.	.	.	.	.	.	.	.	32B-\ 32f	.	32b-\	.	32dd\	.	.	.	.	.	.	.	.	.	.	.	.	.	.	.	.	.	.	.	.	.	.	.
32BB-/	.	.	.	.	.	.	.	.	.	.	.	.	32B-\ 32f	.	32b-\	.	32dd\	.	.	.	.	.	.	.	.	.	.	.	.	.	.	.	.	.	.	.	.	.	.	.
32BB-/	.	.	.	.	.	.	.	.	.	.	.	.	32B-\ 32f	.	32b-\	.	32dd\	.	.	.	.	.	.	.	.	.	.	.	.	.	.	.	.	.	.	.	.	.	.	.
32BB-/	.	.	.	.	.	.	.	.	.	.	.	.	32B-\ 32f	.	32b-\	.	32dd\	.	.	.	.	.	.	.	.	.	.	.	.	.	.	.	.	.	.	.	.	.	.	.
32BB-/	.	.	.	.	.	.	.	.	.	.	.	.	32B-\ 32f	.	32b-\	.	32dd\	.	.	.	.	.	.	.	.	.	.	.	.	.	.	.	.	.	.	.	.	.	.	.
32BB-/	.	.	.	.	.	.	.	.	.	.	.	.	32B-\ 32f	.	32b-\	.	32dd\	.	.	.	.	.	.	.	.	.	.	.	.	.	.	.	.	.	.	.	.	.	.	.
32BB-/	.	.	.	.	.	.	.	.	.	.	.	.	32B-\ 32f	.	32b-\	.	32dd\	.	.	.	.	.	.	.	.	.	.	.	.	.	.	.	.	.	.	.	.	.	.	.
32BB-/JJJ	.	.	.	.	.	.	.	.	.	.	.	.	32B-\ 32fJJJ	.	32b-\JJJ	.	32dd\JJJ	.	.	.	.	.	.	.	.	.	.	.	.	.	.	.	.	.	.	.	.	.	.	.
*Xtremolo	*	*	*	*	*	*	*	*	*	*	*	*	*Xtremolo	*	*Xtremolo	*	*Xtremolo	*	*	*	*	*	*	*	*	*	*	*	*	*	*	*	*	*	*	*	*	*	*	*
2BB-;/	.	2BB-;/	.	.	2B-;\	-ty	.	2f;/	.	2dd;\	-ty	.	2B-;\ 2f	.	2b-;\	.	2dd;\	.	2B-;\	.	2d;\	.	2f;\	.	2Rg;/	.	2dd;/	2b-\	.	2BB-;\ 2d	.	2B-;/ 2f	.	2dd;/	2b-\	.	2ff;\ 2bb-	.	2ddd;\	.
*	*	*	*	*	*	*	*	*	*	*	*	*	*	*	*	*	*	*	*	*	*	*	*	*	*	*	*v	*v	*	*	*	*	*	*v	*v	*	*	*	*	*
=10	=10	=10	=10	=10	=10	=10	=10	=10	=10	=10	=10	=10	=10	=10	=10	=10	=10	=10	=10	=10	=10	=10	=10	=10	=10	=10	=10	=10	=10	=10	=10	=10	=10	=10	=10	=10	=10	=10
*	*	*	*	*	*	*	*	*	*	*	*	*	*	*	*	*	*	*	*	*	*	*	*	*	*	*	*	*	*	*	*^	*	*	*	*	*	*	*
!	!	!	!	!	!	!	!LO:DY:a	!	!	!	!	!	!	!	!	!	!	!	!	!	!	!	!	!	!	!	!	!	!	!	!	!	!	!	!	!	!	!	!
1r	.	1r	.	.	2B-\	Peł-	p	1r	.	1r	.	.	(2B-'/	.	1r	.	1r	.	1r	.	1r	.	1r	.	1r	.	1r	.	1r	.	1rdd	2B-\	p	1r	.	1r	.	1r	.
.	.	.	.	.	4B-\	-ne	.	.	.	.	.	.	4B-'/	.	.	.	.	.	.	.	.	.	.	.	.	.	.	.	.	.	.	4B-\	.	.	.	.	.	.	.
.	.	.	.	.	4B-\	iest	.	.	.	.	.	.	4B-'/)	.	.	.	.	.	.	.	.	.	.	.	.	.	.	.	.	.	.	4B-\	.	.	.	.	.	.	.
=11	=11	=11	=11	=11	=11	=11	=11	=11	=11	=11	=11	=11	=11	=11	=11	=11	=11	=11	=11	=11	=11	=11	=11	=11	=11	=11	=11	=11	=11	=11	=11	=11	=11	=11	=11	=11	=11	=11	=11
!	!	!	!	!	!	!	!	!	!	!	!	!LO:DY:a	!	!	!	!	!LO:TX:a:t=dolce	!	!	!	!	!	!	!	!	!	!	!	!	!	!	!	!	!	!	!	!	!	!
(2D\	p	2D\	Peł-	p	1B-	Nie-	.	2f/	.	2a-X/	Peł-	p	1B-	.	(2f/	.	(2a-X/	.	1r	.	1r	.	1r	.	1r	.	1r	.	1r	.	1rdd	[1B-	.	1r	.	1r	.	1r	.
4E-\	.	4E-\	-ne	.	.	.	.	4e-/	.	4g/	-ne	.	.	.	4e-/	.	4g/	.	.	.	.	.	.	.	.	.	.	.	.	.	.	.	.	.	.	.	.	.	.
4A-X\)	.	4A-X\	jest	.	.	.	.	4d/	.	4f/	iest	.	.	.	4d/)	.	4f/)	.	.	.	.	.	.	.	.	.	.	.	.	.	.	.	.	.	.	.	.	.	.
!!LO:PB:g=original
=12	=12	=12	=12	=12	=12	=12	=12	=12	=12	=12	=12	=12	=12	=12	=12	=12	=12	=12	=12	=12	=12	=12	=12	=12	=12	=12	=12	=12	=12	=12	=12	=12	=12	=12	=12	=12	=12	=12	=12
(2G\	.	2G\	Nie-	.	4B-\	-bo	.	2e-/	.	(4.e-/	Nie-	.	4B-/	.	2e-/	.	(4.e-/	.	1r	.	1r	.	1r	.	1r	.	1r	.	1r	.	1rff	4B-\]	.	1r	.	1r	.	1r	.
.	.	.	.	.	2B-\	Pe-	.	.	.	.	.	.	2B-/	.	.	.	.	.	.	.	.	.	.	.	.	.	.	.	.	.	.	2B-\	.	.	.	.	.	.	.
.	.	.	.	.	.	.	.	.	.	8g/)	.	.	.	.	.	.	8g/)	.	.	.	.	.	.	.	.	.	.	.	.	.	.	.	.	.	.	.	.	.	.
[2E-\)	.	2E-\	-bo	.	.	.	.	2e-/	.	2g/	-bo	.	.	.	2e-/	.	2g/	.	.	.	.	.	.	.	.	.	.	.	.	.	.	.	.	.	.	.	.	.	.
.	.	.	.	.	4B-\	-łen	.	.	.	.	.	.	4B-/	.	.	.	.	.	.	.	.	.	.	.	.	.	.	.	.	.	.	4B-\	.	.	.	.	.	.	.
=13	=13	=13	=13	=13	=13	=13	=13	=13	=13	=13	=13	=13	=13	=13	=13	=13	=13	=13	=13	=13	=13	=13	=13	=13	=13	=13	=13	=13	=13	=13	=13	=13	=13	=13	=13	=13	=13	=13	=13
(4E-\]	.	4E-\	pe-	.	2B-\	iest	.	4f/	.	4a-/	pe-	.	[1B-	.	([2f/	.	(>[2a-/	.	1r	.	1r	.	1r	.	1r	.	1r	.	1r	.	1rdd	[1B-	.	1r	.	1r	.	1r	.
8D\L	.	(8D\L	-łen	.	.	.	.	4f/	.	4a-/	-łen	.	.	.	.	.	.	.	.	.	.	.	.	.	.	.	.	.	.	.	.	.	.	.	.	.	.	.	.
8C\J	.	8C\J)	.	.	.	.	.	.	.	.	.	.	.	.	.	.	.	.	.	.	.	.	.	.	.	.	.	.	.	.	.	.	.	.	.	.	.	.	.
(8D/L	.	(8D/L	iest	.	2B-\	świat	.	(8f/L	.	(8a-/L	iest	.	.	.	8f/L]	.	8a-/L]	.	.	.	.	.	.	.	.	.	.	.	.	.	.	.	.	.	.	.	.	.	.
8BB-/	.	8BB-/J)	.	.	.	.	.	8a-/J)	.	8cc/J)	.	.	.	.	8a-/	.	8cc/	.	.	.	.	.	.	.	.	.	.	.	.	.	.	.	.	.	.	.	.	.	.
8C/	.	(8C/L	świat	.	.	.	.	(8g/L	.	(8b-/L	świat	.	.	.	8g/	.	8b-/	.	.	.	.	.	.	.	.	.	.	.	.	.	.	.	.	.	.	.	.	.	.
8D/J))	.	8D/J)	.	.	.	.	.	8f/J)	.	8a-/J)	.	.	.	.	8f/J	.	8a-/J)	.	.	.	.	.	.	.	.	.	.	.	.	.	.	.	.	.	.	.	.	.	.
=14	=14	=14	=14	=14	=14	=14	=14	=14	=14	=14	=14	=14	=14	=14	=14	=14	=14	=14	=14	=14	=14	=14	=14	=14	=14	=14	=14	=14	=14	=14	=14	=14	=14	=14	=14	=14	=14	=14	=14
!	!	!	!	!	!	!	!	!	!	!	!	!	!	!	!	!	!	!	!	!LO:DY:a	!	!	!	!	!	!	!	!	!	!	!	!	!LO:DY:a	!	!	!	!	!	!
2E-\	.	2E-\	ca-	.	2B-\	ca-	.	(4.e-/	.	(4.g/	ca-	.	2B-/_	.	2e-/)	.	(2g/	.	[2E-\	pp	[2G/	.	[2e-\	pp	1r	.	1r	.	1r	.	[2e-/	2B-\_	p	2r	.	2r	.	2r	.
.	.	.	.	.	.	.	.	8g/)	.	8b-/)	.	.	.	.	.	.	.	.	.	.	.	.	.	.	.	.	.	.	.	.	.	.	.	.	.	.	.	.	.
8E-\	.	8E-\	-ły	.	8B-\	-ły	.	8g/	.	8b-/	-ły	.	8B-/]	.	16g/LL	.	16b-/LL)	.	8E-\]	.	8G/]	.	8e-\]	.	.	.	.	.	.	.	8e-/]	8B-\]	.	16r	.	16r	.	16r	.
.	.	.	.	.	.	.	.	.	.	.	.	.	.	.	(16e-/	.	(16e-/	.	.	.	.	.	.	.	.	.	.	.	.	.	.	.	.	(<16e-/LL	.	(16ee-\LL	.	(16ee-\LL	.
!	!	!	!	!	!	!	!	!	!	!	!	!	!	!	!	!	!	!LO:HP:a	!	!	!	!	!	!	!	!	!	!	!	!	!	!	!	!	!	!	!	!	!
8r	.	8r	.	.	8r	.	.	8r	.	8r	.	.	8r	.	16d/	.	16d/	<	8r	.	8r	.	8r	.	.	.	.	.	.	.	8r	8r	.	16d/	.	16dd\	.	16dd\	<
.	.	.	.	.	.	.	.	.	.	.	.	.	.	.	16e-/JJ	.	16e-/JJ	.	.	.	.	.	.	.	.	.	.	.	.	.	.	.	.	16e-/JJ	.	16ee-\JJ	.	16ee-\JJ	.
4r	.	4r	.	.	4r	.	.	4r	.	4r	.	.	4r	.	16f/LL	.	16f/LL	.	4r	.	4r	.	4r	.	.	.	.	.	.	.	4r	4r	.	16f/LL	.	16ff\LL	.	16ff\LL	.
.	.	.	.	.	.	.	.	.	.	.	.	.	.	.	16g/	.	16g/	.	.	.	.	.	.	.	.	.	.	.	.	.	.	.	.	16g/	.	16gg\	.	16gg\	.
.	.	.	.	.	.	.	.	.	.	.	.	.	.	.	16a-/	.	16a-/	.	.	.	.	.	.	.	.	.	.	.	.	.	.	.	.	16a-/	.	16aa-\	.	16aa-\	.
.	.	.	.	.	.	.	.	.	.	.	.	.	.	.	16b-/JJ)	.	16b-/JJ)	[[	.	.	.	.	.	.	.	.	.	.	.	.	.	.	.	16b-/JJ	.	16bb-\JJ	.	16bb-\JJ	[
=15	=15	=15	=15	=15	=15	=15	=15	=15	=15	=15	=15	=15	=15	=15	=15	=15	=15	=15	=15	=15	=15	=15	=15	=15	=15	=15	=15	=15	=15	=15	=15	=15	=15	=15	=15	=15	=15	=15	=15
*	*	*	*	*	*	*	*	*	*	*	*	*	*	*	*	*	*	*	*	*	*	*	*	*	*	*	*^	*	*^	*	*	*	*	*	*	*	*	*	*
!	!	!	!	!	!	!	!LO:DY:a	!	!LO:DY:a	!	!	!LO:DY:a	!	!	!	!LO:DY:a	!	!LO:DY:a	!	!	!	!	!	!	!	!	!	!	!	!	!	!	!	!	!	!	!	!	!	!	!
2AA-/	f	2AA-\ 2A-	.	.	2c\ 2e-	Je-	f	2a-/	f	2cc\	Je-	f	2A-/ 2e-	.	2a-/	f	2cc\	f	2.AA-/	f	2A-\	.	2c\	f	1r	.	2.cc/	2.a-X\	.	2.A-\	2.AA-\	f	2.e-/	2.e-\	.	2a-\) 2cc	f	2.aa-\) 2.ccc	.	2ccc\)	f
4AA-/	.	4AA-/	.	.	4e-\	-go	.	4cc\	.	4ee-\	-go	.	4A-/ 4e-	.	4cc/	.	4ee-\	.	.	.	4c\	.	4e-\	.	.	.	.	.	.	.	.	.	.	.	.	4cc\ 4ee-	.	.	.	4eee-\	.
4C/	.	4C/	.	.	4e-\	po-	.	4a-/	.	4cc\	po-	.	4A-/ 4e-	.	4a-/	.	4cc\	.	4C/	.	4A-\	.	4c\	.	.	.	4cc/	4a-\	.	4A-\	4C\	.	4e-/	4e-\	.	4a-\ 4cc	.	4ee-\ 4aa-	.	4ccc\	.
=16	=16	=16	=16	=16	=16	=16	=16	=16	=16	=16	=16	=16	=16	=16	=16	=16	=16	=16	=16	=16	=16	=16	=16	=16	=16	=16	=16	=16	=16	=16	=16	=16	=16	=16	=16	=16	=16	=16	=16	=16	=16
*	*	*	*	*	*	*	*	*	*	*	*	*	*	*	*	*	*	*	*	*	*	*	*	*	*	*	*	*	*	*	*	*	*	*	*	*	*	*^	*	*	*
*tremolo	*	*	*	*	*	*	*	*	*	*	*	*	*tremolo	*	*tremolo	*	*tremolo	*	*	*	*	*	*	*	*	*	*	*	*	*	*	*	*	*	*	*	*	*	*	*	*	*
32E-^<\LLL	.	2E-\	.	.	2e-\	-tę-	.	2g/	.	2b-/	-tę-	.	(32e-\LLL	.	(32g/LLL	.	(>32b-^</LLL	.	2.E-^<\	.	2.G^</	.	2.B-^</	.	2RgyT</	f	2.b-X/	2.g^<\	.	2.B-/	2.E-^<\	.	2.e-/	2.e-^<\	.	(>2g^</ 2b-	.	(>2ee-^<\ (>2gg	2.ryy	.	(2bb-^<\	.
32E-\	.	.	.	.	.	.	.	.	.	.	.	.	32e-\	.	32g/	.	32b-/	.	.	.	.	.	.	.	.	.	.	.	.	.	.	.	.	.	.	.	.	.	.	.	.	.
32E-\	.	.	.	.	.	.	.	.	.	.	.	.	32e-\	.	32g/	.	32b-/	.	.	.	.	.	.	.	.	.	.	.	.	.	.	.	.	.	.	.	.	.	.	.	.	.
32E-\	.	.	.	.	.	.	.	.	.	.	.	.	32e-\	.	32g/	.	32b-/	.	.	.	.	.	.	.	.	.	.	.	.	.	.	.	.	.	.	.	.	.	.	.	.	.
32E-\	.	.	.	.	.	.	.	.	.	.	.	.	32e-\	.	32g/	.	32b-/	.	.	.	.	.	.	.	.	.	.	.	.	.	.	.	.	.	.	.	.	.	.	.	.	.
32E-\	.	.	.	.	.	.	.	.	.	.	.	.	32e-\	.	32g/	.	32b-/	.	.	.	.	.	.	.	.	.	.	.	.	.	.	.	.	.	.	.	.	.	.	.	.	.
32E-\	.	.	.	.	.	.	.	.	.	.	.	.	32e-\	.	32g/	.	32b-/	.	.	.	.	.	.	.	.	.	.	.	.	.	.	.	.	.	.	.	.	.	.	.	.	.
32E-\	.	.	.	.	.	.	.	.	.	.	.	.	32e-\	.	32g/	.	32b-/	.	.	.	.	.	.	.	.	.	.	.	.	.	.	.	.	.	.	.	.	.	.	.	.	.
32E-\	.	.	.	.	.	.	.	.	.	.	.	.	32e-\	.	32g/	.	32b-/	.	.	.	.	.	.	.	.	.	.	.	.	.	.	.	.	.	.	.	.	.	.	.	.	.
32E-\	.	.	.	.	.	.	.	.	.	.	.	.	32e-\	.	32g/	.	32b-/	.	.	.	.	.	.	.	.	.	.	.	.	.	.	.	.	.	.	.	.	.	.	.	.	.
32E-\	.	.	.	.	.	.	.	.	.	.	.	.	32e-\	.	32g/	.	32b-/	.	.	.	.	.	.	.	.	.	.	.	.	.	.	.	.	.	.	.	.	.	.	.	.	.
32E-\	.	.	.	.	.	.	.	.	.	.	.	.	32e-\	.	32g/	.	32b-/	.	.	.	.	.	.	.	.	.	.	.	.	.	.	.	.	.	.	.	.	.	.	.	.	.
32E-\	.	.	.	.	.	.	.	.	.	.	.	.	32e-\	.	32g/	.	32b-/	.	.	.	.	.	.	.	.	.	.	.	.	.	.	.	.	.	.	.	.	.	.	.	.	.
32E-\	.	.	.	.	.	.	.	.	.	.	.	.	32e-\	.	32g/	.	32b-/	.	.	.	.	.	.	.	.	.	.	.	.	.	.	.	.	.	.	.	.	.	.	.	.	.
32E-\	.	.	.	.	.	.	.	.	.	.	.	.	32e-\	.	32g/	.	32b-/	.	.	.	.	.	.	.	.	.	.	.	.	.	.	.	.	.	.	.	.	.	.	.	.	.
32E-\JJJ	.	.	.	.	.	.	.	.	.	.	.	.	32e-\JJJ	.	32g/JJJ	.	32b-/JJJ	.	.	.	.	.	.	.	.	.	.	.	.	.	.	.	.	.	.	.	.	.	.	.	.	.
*Xtremolo	*	*	*	*	*	*	*	*	*	*	*	*	*Xtremolo	*	*Xtremolo	*	*Xtremolo	*	*	*	*	*	*	*	*	*	*	*	*	*	*	*	*	*	*	*	*	*	*	*	*	*
4E-\	.	4E-\	.	.	4B-\	-gi	.	4e-/	.	4g/	-gi	.	4B-/)	.	4e-/)	.	4g/)	.	.	.	.	.	.	.	2r	.	.	.	.	.	.	.	.	.	.	4e-/) 4g	.	4cc\) 4ee-)	.	.	4gg\)	.
!	!LO:DY:a	!	!	!LO:DY:a	!	!	!LO:DY:a	!	!LO:DY:a	!	!	!LO:DY:a	!	!	!	!LO:DY:a	!	!LO:DY:a	!	!	!	!	!	!	!	!	!	!	!	!	!	!	!	!	!	!	!	!	!	!	!	!
.	p	.	.	p	.	.	p	.	p	.	.	p	.	.	.	p	.	p	.	.	.	.	.	.	.	.	.	.	.	.	.	.	.	.	.	.	.	.	.	.	.	.
!	!	!	!	!	!	!	!	!	!	!	!	!	!	!	!	!	!	!	!	!	!	!	!	!	!	!	!	!	!	!	!	!	!	!	!	!LO:TX:t=P:problem=brak początku łuku	!	!	!	!	!	!LO:DY:a
4G\	.	4G\	.	.	4e-\	i	.	4e-/	.	4g/	i	.	(4e-\	.	4e-'/	.	4g'/	.	4r	.	4r	.	4r	.	.	.	4r	4ryy	.	4B-/	4G\	p	4e-/	4e-\	.	4e-/ (>4g	.	4ee-/	4ee-\	.	4gg'\	p
*	*	*	*	*	*	*	*	*	*	*	*	*	*	*	*	*	*	*	*	*	*	*	*	*	*	*	*v	*v	*	*	*	*	*	*	*	*	*	*	*	*	*	*
*	*	*	*	*	*	*	*	*	*	*	*	*	*	*	*	*	*	*	*	*	*	*	*	*	*	*	*	*	*v	*v	*	*	*	*	*	*	*	*	*	*	*
!!LO:PB:g=original
=17	=17	=17	=17	=17	=17	=17	=17	=17	=17	=17	=17	=17	=17	=17	=17	=17	=17	=17	=17	=17	=17	=17	=17	=17	=17	=17	=17	=17	=17	=17	=17	=17	=17	=17	=17	=17	=17	=17	=17	=17
*	*	*	*	*	*	*	*	*	*	*	*	*	*	*	*	*	*	*	*	*	*	*	*	*	*	*	*	*	*	*	*	*	*	*^	*	*	*	*	*	*
!	!	!	!	!LO:DY:a	!	!	!	!	!	!	!	!	!	!	!	!	!	!LO:HP:a	!	!	!	!	!	!	!	!	!	!	!	!	!	!	!	!	!	!	!	!	!	!	!
2B-\	.	(2B-\	.	<	(4e-\	chwa-	.	(2..f/	.	(2..a-/	chwa-	.	4e-\	.	(2..f/	.	(2..a-/	<	1r	.	1r	.	1r	.	1r	.	1r	]	(2B-\	]	2..f/	1B-	.	(2..a-/)	4e-\	.	(2..ff/	4ee-\	.	(2..aa-\	.
.	.	.	.	.	8d\L	.	.	.	.	.	.	.	8d\L	.	.	.	.	.	.	.	.	.	.	.	.	.	.	.	.	.	.	.	.	.	8d\L	.	.	8dd\L	.	.	.
!	!	!	!	!	!	!	!	!	!	!	!	!	!	!	!	!	!	!LO:HP:a	!	!	!	!	!	!	!	!	!	!	!	!	!	!	!	!	!	!	!	!	!	!	!
.	.	.	.	.	8c\J	.	.	.	.	.	.	.	8c\J	.	.	.	.	[ >	.	.	.	.	.	.	.	.	.	.	.	.	.	.	.	.	8c\J	.	.	8cc\J	.	.	.
!	!	!	!	!LO:DY:a	!	!	!	!	!	!	!	!	!	!	!	!	!	!	!	!	!	!	!	!	!	!	!	!	!	!	!	!	!	!	!	!	!	!	!	!	!
(4.BB-/	.	4.BB-/	.	[ >	4.d\	.	.	.	.	.	.	.	4.d\	.	.	.	.	.	.	.	.	.	.	.	.	.	.	.	4.BB-/	.	.	.	.	.	4.d\	.	.	4.dd\	.	.	.
8E-\)	.	8E-\)	.	]	8e-\)	.	.	8e-/)	.	8g/)	.	.	8e-\)	.	8e-/)	.	8g/)	]	.	.	.	.	.	.	.	.	.	.	8E-\)	.	8e-/	.	.	8g/)	8e-\	.	8ee-/)	8ee-\	.	8gg\)	.
=18	=18	=18	=18	=18	=18	=18	=18	=18	=18	=18	=18	=18	=18	=18	=18	=18	=18	=18	=18	=18	=18	=18	=18	=18	=18	=18	=18	=18	=18	=18	=18	=18	=18	=18	=18	=18	=18	=18	=18	=18	=18
*^	*	*	*	*	*	*	*	*	*	*	*	*	*	*	*	*	*	*	*	*	*	*	*	*	*	*	*	*	*	*	*	*	*	*	*	*	*	*	*	*	*
4ryy	4E-\	.	4E-\	.	.	4e-\	-ły	.	4e-/	.	4g/	-ły	.	4e-\	.	4e-/	.	4g/	]	1r	.	1r	.	1r	.	1r	.	1r	.	4E-\	.	4e-/	4B-\	.	4g/	4e-\	.	4ee-/	4ee-\	.	4gg\	.
(<8E-/L	4r	.	4r	.	.	4r	.	.	4r	.	4r	.	.	(8E-/L	.	(8gg\L	.	(8bb-\L	.	.	.	.	.	.	.	.	.	.	.	4r	.	4r	4ryy	.	4r	4ryy	.	4r	4ryy	.	4r	.
16G/Jk)	.	.	.	.	.	.	.	.	.	.	.	.	.	16G/Jk)	.	16ee-\Jk)	.	16gg\Jk)	.	.	.	.	.	.	.	.	.	.	.	.	.	.	.	.	.	.	.	.	.	.	.	.
16r	.	.	.	.	.	.	.	.	.	.	.	.	.	16r	.	16r	.	16r	.	.	.	.	.	.	.	.	.	.	.	.	.	.	.	.	.	.	.	.	.	.	.	.
(<8G/L	2r	.	2r	.	.	2r	.	.	2r	.	2r	.	.	(8G/L	.	(8ee-\L	.	(8gg\L	.	.	.	.	.	.	.	.	.	.	.	2r	.	2r	2ryy	.	2r	2ryy	.	2r	2ryy	.	2r	.
16B-/Jk)	.	.	.	.	.	.	.	.	.	.	.	.	.	16B-/Jk)	.	16b-\Jk)	.	16ee-\Jk)	.	.	.	.	.	.	.	.	.	.	.	.	.	.	.	.	.	.	.	.	.	.	.	.
16r	.	.	.	.	.	.	.	.	.	.	.	.	.	16r	.	16r	.	16r	.	.	.	.	.	.	.	.	.	.	.	.	.	.	.	.	.	.	.	.	.	.	.	.
(<8B-/L	.	.	.	.	.	.	.	.	.	.	.	.	.	(8B-\L	.	(8b-/L	.	(8ee-\L	.	.	.	.	.	.	.	.	.	.	.	.	.	.	.	.	.	.	.	.	.	.	.	.
16e-/Jk)	.	.	.	.	.	.	.	.	.	.	.	.	.	16e-\Jk)	.	16g/Jk)	.	16b-\Jk)	.	.	.	.	.	.	.	.	.	.	.	.	.	.	.	.	.	.	.	.	.	.	.	.
16r	.	.	.	.	.	.	.	.	.	.	.	.	.	16r	.	16r	.	16r	.	.	.	.	.	.	.	.	.	.	.	.	.	.	.	.	.	.	.	.	.	.	.	.
*	*	*	*	*	*	*	*	*	*	*	*	*	*	*	*	*	*	*	*	*	*	*	*	*	*	*	*	*	*	*	*	*	*	*	*v	*v	*	*	*	*	*	*
*v	*v	*	*	*	*	*	*	*	*	*	*	*	*	*	*	*	*	*	*	*	*	*	*	*	*	*	*	*	*	*	*	*	*	*	*	*	*v	*v	*	*	*
=19	=19	=19	=19	=19	=19	=19	=19	=19	=19	=19	=19	=19	=19	=19	=19	=19	=19	=19	=19	=19	=19	=19	=19	=19	=19	=19	=19	=19	=19	=19	=19	=19	=19	=19	=19	=19	=19	=19	=19
*	*	*	*	*	*	*	*	*	*	*	*	*	*	*	*	*	*^	*	*	*	*	*	*	*	*	*	*^	*	*	*	*	*	*	*	*	*	*	*	*
!	!	!	!	!LO:DY:a	!	!	!LO:DY:a	!	!LO:DY:a	!	!	!LO:DY:a	!	!	!	!	!	!	!LO:DY:a	!	!	!	!	!	!	!	!	!	!	!	!	!	!	!	!	!	!	!	!	!	!
2AA-/	f	2AA-\ 2A-	.	f	2e-\	Je-	f	2a-/	f	2cc\	Je-	f	2A-\ 2e-	.	2a-/	.	2cc/	4A-/ 4e-	f	2AA-/	.	2A-\	f	2c\	f	1r	.	2cc/	2a-X\	.	2AA-\ 2A-	.	2.e-/	2.e-\	f	2a-\ 2cc	f	2.aa-\ 2.ccc	f	2ccc\	f
.	.	.	.	.	.	.	.	.	.	.	.	.	.	.	.	.	.	4ryy	.	.	.	.	.	.	.	.	.	.	.	.	.	.	.	.	.	.	.	.	.	.	.
4AA-/	.	4AA-/	.	.	4e-\	-go	.	4cc/	.	4ee-\	-go	.	4A-\ 4e-	.	4cc/	.	4ee-/	2ryy	.	4AA-/	.	4c\	.	4e-\	.	.	.	4cc/	4a-\	.	4AA-\ 4A-	.	.	.	.	4cc\ 4ee-	.	.	.	4eee-\	.
4C/	.	4C/	.	.	4e-\	po-	.	4a-/	.	4cc\	po-	.	4A-\ 4e-	.	4a-/	.	4cc/	.	.	4C/	.	4A-\	.	4c\	.	.	.	4cc/	4a-\	.	4C\ 4A-	.	4e-/	4e-\	.	4a-\ 4cc	.	4ee-\ 4aa-	.	4ccc\	.
*	*	*	*	*	*	*	*	*	*	*	*	*	*	*	*	*	*v	*v	*	*	*	*	*	*	*	*	*	*	*	*	*	*	*	*	*	*	*	*	*	*	*
=20	=20	=20	=20	=20	=20	=20	=20	=20	=20	=20	=20	=20	=20	=20	=20	=20	=20	=20	=20	=20	=20	=20	=20	=20	=20	=20	=20	=20	=20	=20	=20	=20	=20	=20	=20	=20	=20	=20	=20	=20
*tremolo	*	*	*	*	*	*	*	*	*	*	*	*	*tremolo	*	*tremolo	*	*tremolo	*	*	*	*	*	*	*	*tremolo	*	*	*	*	*	*	*	*	*	*	*	*	*	*	*
32E-^<\LLL	.	2E-\	.	.	2e-\	-tę-	.	2g/	.	2b-/	-tę-	.	32e-\LLL	.	(32g/LLL	.	(>32b-\LLL	>	2.E-\	.	2.G^/	.	2.B-^/	.	32Rg/LLL	f >	2.b-X/	2.g\	>	2.E-\ 2.G	>	2.e-/	2.e-\	>	(>2g/ 2b-	>	(2ee-\ 2gg	>	(2ddd\	>
32E-\	.	.	.	.	.	.	.	.	.	.	.	.	32e-\	.	32g^/	.	32b-\	.	.	.	.	.	.	.	32Rg/	.	.	.	.	.	.	.	.	.	.	.	.	.	.	.
32E-\	.	.	.	.	.	.	.	.	.	.	.	.	32e-\	.	32g^/	.	32b-\	.	.	.	.	.	.	.	32Rg/	.	.	.	.	.	.	.	.	.	.	.	.	.	.	.
32E-\	.	.	.	.	.	.	.	.	.	.	.	.	32e-\	.	32g^/	.	32b-\	.	.	.	.	.	.	.	32Rg/	.	.	.	.	.	.	.	.	.	.	.	.	.	.	.
32E-\	.	.	.	.	.	.	.	.	.	.	.	.	32e-\	.	32g^/	.	32b-\	.	.	.	.	.	.	.	32Rg/	.	.	.	.	.	.	.	.	.	.	.	.	.	.	.
32E-\	.	.	.	.	.	.	.	.	.	.	.	.	32e-\	.	32g^/	.	32b-\	.	.	.	.	.	.	.	32Rg/	.	.	.	.	.	.	.	.	.	.	.	.	.	.	.
32E-\	.	.	.	.	.	.	.	.	.	.	.	.	32e-\	.	32g^/	.	32b-\	.	.	.	.	.	.	.	32Rg/	.	.	.	.	.	.	.	.	.	.	.	.	.	.	.
32E-\	.	.	.	.	.	.	.	.	.	.	.	.	32e-\	.	32g^/	.	32b-\	]	.	.	.	.	.	.	32Rg/	.	.	.	]	.	]	.	.	]	.	.	.	.	.	.
32E-\	.	.	.	.	.	.	.	.	.	.	.	.	32e-\	.	32g^/	.	32b-\	.	.	.	.	.	.	.	32Rg/	.	.	.	.	.	.	.	.	.	.	.	.	.	.	.
32E-\	.	.	.	.	.	.	.	.	.	.	.	.	32e-\	.	32g^/	.	32b-\	.	.	.	.	.	.	.	32Rg/	.	.	.	.	.	.	.	.	.	.	.	.	.	.	.
32E-\	.	.	.	.	.	.	.	.	.	.	.	.	32e-\	.	32g^/	.	32b-\	.	.	.	.	.	.	.	32Rg/	.	.	.	.	.	.	.	.	.	.	.	.	.	.	.
32E-\	.	.	.	.	.	.	.	.	.	.	.	.	32e-\	.	32g^/	.	32b-\	.	.	.	.	.	.	.	32Rg/	.	.	.	.	.	.	.	.	.	.	.	.	.	.	.
32E-\	.	.	.	.	.	.	.	.	.	.	.	.	32e-\	.	32g^/	.	32b-\	.	.	.	.	.	.	.	32Rg/	.	.	.	.	.	.	.	.	.	.	.	.	.	.	.
32E-\	.	.	.	.	.	.	.	.	.	.	.	.	32e-\	.	32g^/	.	32b-\	.	.	.	.	.	.	.	32Rg/	.	.	.	.	.	.	.	.	.	.	.	.	.	.	.
32E-\	.	.	.	.	.	.	.	.	.	.	.	.	32e-\	.	32g^/	.	32b-\	.	.	.	.	.	.	.	32Rg/	.	.	.	.	.	.	.	.	.	.	.	.	.	.	.
32E-\JJJ	.	.	.	.	.	.	.	.	.	.	.	.	32e-\JJJ	.	32g^/JJJ	.	32b-\JJJ	.	.	.	.	.	.	.	32Rg/JJJ	.	.	.	.	.	.	.	.	.	.	.	.	.	.	.
*Xtremolo	*	*	*	*	*	*	*	*	*	*	*	*	*Xtremolo	*	*Xtremolo	*	*Xtremolo	*	*	*	*	*	*	*	*Xtremolo	*	*	*	*	*	*	*	*	*	*	*	*	*	*	*
4E-\	.	4E-\	.	.	4B-\	-gi	.	4e-/	.	4g/	-gi	.	4B-/	.	4e-/)	.	4g/)	.	.	.	.	.	.	.	4Rg/	]	.	.	.	.	.	.	.	.	4e-/) 4g	]	4b-\) 4ee-	]	4bb-\)	]
.	p	.	.	p	.	.	.	.	.	.	.	p	.	.	.	.	.	p	.	.	.	.	.	.	.	.	.	.	.	.	.	.	.	.	.	.	.	.	.	.
4G\	.	4G\	.	.	4B-\	i	.	4e-/	.	4ee-\	i	.	4B-/ 4g	.	4e-'/	.	[4ee-\	.	4r	.	4r	.	4r	.	4r	.	4r	4ryy	.	4G\ 4B-	p	4e-/	4e-\	p	4e-/ 4g	p	(>4b-/ [4ee-	p	([4eee-\	p
*	*	*	*	*	*	*	*	*	*	*	*	*	*	*	*	*	*	*	*	*	*	*	*	*	*	*	*v	*v	*	*	*	*v	*v	*	*	*	*	*	*	*
=21	=21	=21	=21	=21	=21	=21	=21	=21	=21	=21	=21	=21	=21	=21	=21	=21	=21	=21	=21	=21	=21	=21	=21	=21	=21	=21	=21	=21	=21	=21	=21	=21	=21	=21	=21	=21	=21	=21
*	*	*	*	*	*	*	*	*	*	*	*	*	*^	*	*	*	*	*	*	*	*	*	*	*	*	*	*	*	*^	*	*	*	*	*	*^	*	*	*
2B-\	.	(2B-\	.	.	1B-	chwa-	.	(2..f/	.	(4ee-\	chwa-	.	(>2..a-/	1B-	.	(2..f/	.	4ee-\]	.	1r	.	1r	.	1r	.	1r	.	1r	.	[1B-	(2B-\	.	((2..B-/ 2..f	.	(>2..f/ (2..a-	.	4ee-/]	1b-	.	4eee-\]	.
.	.	.	.	.	.	.	.	.	.	8dd\L	.	.	.	.	.	.	.	(8dd\L	.	.	.	.	.	.	.	.	.	.	.	.	.	.	.	.	.	.	8dd/L	.	.	8ddd\L	.
.	.	.	.	.	.	.	.	.	.	8cc\J	.	.	.	.	.	.	.	8cc\J	.	.	.	.	.	.	.	.	.	.	.	.	.	.	.	.	.	.	8cc/J	.	.	8ccc\J	.
(4.BB-/	.	4.BB-/	.	.	.	.	.	.	.	4.dd\	.	.	.	.	.	.	.	4.dd\	.	.	.	.	.	.	.	.	.	.	.	.	4.BB-\	.	.	.	.	.	4.dd/	.	.	4.ddd\	.
!	!	!	!	!	!	!	!	!	!	!	!	!	!	!	!	!	!	!	!	!	!	!	!	!	!	!	!	!	!	!	!	!	!LO:SIC:v:n=2:s=8G	!	!	!	!	!	!	!	!
8E-\)	.	8E-\)	.	.	.	.	.	8g/)	.	8ee-\)	.	.	8g/)	.	.	8g/)	.	8ee-\	.	.	.	.	.	.	.	.	.	.	.	.	8E-\)	.	8F/)) 8e-	.	8e-/) 8g	.	8ee-/)	.	.	8eee-\)	.
!!LO:PB:g=original
=22	=22	=22	=22	=22	=22	=22	=22	=22	=22	=22	=22	=22	=22	=22	=22	=22	=22	=22	=22	=22	=22	=22	=22	=22	=22	=22	=22	=22	=22	=22	=22	=22	=22	=22	=22	=22	=22	=22	=22	=22	=22
*	*	*	*	*	*	*	*	*	*	*	*	*	*	*	*	*	*	*	*	*	*	*	*	*	*	*	*	*	*	*	*	*	*	*	*^	*	*	*	*	*	*
!	!	!	!	!	!	!	!	!	!	!	!	!	!	!	!	!	!	!	!	!	!	!	!	!	!	!	!	!	!	!	!	!	!	!	!LO:TX:t=P:problem=brak zakończenia łuku	!	!	!	!	!	!	!
4E-\	.	4E-\	.	.	4B-\	-ły	.	4g/	.	4ee-\	-ły	.	1ryy	4B-/	.	4g/	.	4ee-\)	.	4r	.	4r	.	4r	.	1r	.	4r	.	4B-\]	4E-\	.	4G/ 4e-	.	4e-/) 4g	2.ryy	.	4ee-/	4b-\	.	4eee-\	.
4r	.	4r	.	.	4r	.	.	4r	.	4r	.	.	.	4r	.	4r	.	4r	.	8.G\L	f	8.G/L	.	8.g\L	f	.	.	8.g/L	f	4r	4ryy	.	8.G/L 8.g	f	4r	.	.	4r	4ryy	.	4r	.
.	.	.	.	.	.	.	.	.	.	.	.	.	.	.	.	.	.	.	.	16G\Jk	.	16G/Jk	.	16g\Jk	.	.	.	16g/Jk	.	.	.	.	16G/Jk 16g	.	.	.	.	.	.	.	.	.
4r	.	4r	.	.	4r	.	.	4r	.	4r	.	.	.	4r	.	4r	.	4r	.	4G\	.	4G/	.	4g\	.	.	.	4g/	.	4r	2ryy	.	4G/ 4g	.	4r	.	.	4r	4ryy	.	4r	.
!	!	!	!	!	!	!	!	!	!	!	!	!LO:DY:a	!	!	!LO:DY:a	!	!	!	!	!	!	!	!	!	!	!	!	!	!	!	!	!	!	!	!	!	!	!	!	!	!	!
4G\	.	4G\	.	f	4G/	Za-	.	4g/	.	4g/	Za-	f	.	4G/	f	4g/	.	4g/	f	4G\	.	4G/	.	4g\	.	.	.	4g/	.	4G\	.	f	4G/ 4g	.	4g/	4g\	.	4g/	4g\	.	4gg\	f
*	*	*	*	*	*	*	*	*	*	*	*	*	*v	*v	*	*	*	*	*	*	*	*	*	*	*	*	*	*	*	*v	*v	*	*	*	*v	*v	*	*	*	*	*	*
=23	=23	=23	=23	=23	=23	=23	=23	=23	=23	=23	=23	=23	=23	=23	=23	=23	=23	=23	=23	=23	=23	=23	=23	=23	=23	=23	=23	=23	=23	=23	=23	=23	=23	=23	=23	=23	=23	=23	=23
*	*	*	*	*	*	*	*	*	*	*	*	*	*	*	*	*	*	*	*	*	*	*	*	*	*	*	*^	*	*	*	*	*	*	*	*	*	*	*	*
!	!	!	!	!	!	!	!	!	!	!	!	!	!	!	!LO:TX:t=Unis	!	!	!	!	!	!	!	!	!	!	!	!	!	!	!	!	!	!	!	!	!	!	!	!	!
2c\	.	(2c\	.	.	(2c\	-brzmij-	.	2cc\	.	(2cc\	-brzmij-	.	(2c/	.	(2cc\yy	.	(2cc\	.	(2c\	.	(2c\	.	(2cc\	.	1r	.	2cc/	2cc\	.	2c\	.	(2c/	.	(2cc\	.	(2cc/	2cc\	.	(2ccc\	.
4G\	.	4G\)	.	.	4G/)	.	.	4g/	.	4g/)	.	.	4G/)	.	4g/yy	.	4g/	.	4G\)	.	4G/)	.	4g\)	.	.	.	4g/	4g\	.	4G\	.	4G/)	.	4g/)	.	4g/)	4g\	.	4gg\)	.
4E-\	.	4E-\	.	.	4e-\	-cie	.	4e-/	.	4ee-\	-cie	.	4e-\	.	4ee-'\)yy	.	4ee-'\)	.	4E-\	.	4E-/	.	4e-\	.	.	.	4e-X/	4e-X\	.	4E-\	.	4e-/	.	4ee-'\	.	4ee-/	4ee-\	.	4eee-\	.
=24	=24	=24	=24	=24	=24	=24	=24	=24	=24	=24	=24	=24	=24	=24	=24	=24	=24	=24	=24	=24	=24	=24	=24	=24	=24	=24	=24	=24	=24	=24	=24	=24	=24	=24	=24	=24	=24	=24	=24	=24
*^	*	*	*	*	*	*	*	*	*	*	*	*	*^	*	*	*	*	*	*	*	*	*	*	*	*	*	*	*	*	*^	*	*^	*	*^	*	*	*	*	*	*
*	*	*	*	*	*	*	*	*	*	*	*	*	*	*tremolo	*	*	*tremolo	*	*tremolo	*	*	*	*	*	*	*	*	*	*	*	*	*	*	*	*	*	*	*	*	*	*	*	*	*	*
2C/	2.ryy	.	2C/	.	.	2c\	gó-	.	2c/	.	2cc\	gó-	.	32c\LLL	2.ryy	.	32cc\LLLyy	.	32cc\LLL	.	2.C/	.	2.C/	.	2.c\	.	1r	.	2.c/	2.c\	.	2.C/	2.C\	.	2.c/	2.c\	.	2.cc/	2.cc\	.	2.cc/	2.cc\	.	2.ccc\	.
.	.	.	.	.	.	.	.	.	.	.	.	.	.	32c\	.	.	32cc\yy	.	32cc\	.	.	.	.	.	.	.	.	.	.	.	.	.	.	.	.	.	.	.	.	.	.	.	.	.	.
.	.	.	.	.	.	.	.	.	.	.	.	.	.	32c\	.	.	32cc\yy	.	32cc\	.	.	.	.	.	.	.	.	.	.	.	.	.	.	.	.	.	.	.	.	.	.	.	.	.	.
.	.	.	.	.	.	.	.	.	.	.	.	.	.	32c\	.	.	32cc\yy	.	32cc\	.	.	.	.	.	.	.	.	.	.	.	.	.	.	.	.	.	.	.	.	.	.	.	.	.	.
.	.	.	.	.	.	.	.	.	.	.	.	.	.	32c\	.	.	32cc\yy	.	32cc\	.	.	.	.	.	.	.	.	.	.	.	.	.	.	.	.	.	.	.	.	.	.	.	.	.	.
.	.	.	.	.	.	.	.	.	.	.	.	.	.	32c\	.	.	32cc\yy	.	32cc\	.	.	.	.	.	.	.	.	.	.	.	.	.	.	.	.	.	.	.	.	.	.	.	.	.	.
.	.	.	.	.	.	.	.	.	.	.	.	.	.	32c\	.	.	32cc\yy	.	32cc\	.	.	.	.	.	.	.	.	.	.	.	.	.	.	.	.	.	.	.	.	.	.	.	.	.	.
.	.	.	.	.	.	.	.	.	.	.	.	.	.	32c\	.	.	32cc\yy	.	32cc\	.	.	.	.	.	.	.	.	.	.	.	.	.	.	.	.	.	.	.	.	.	.	.	.	.	.
.	.	.	.	.	.	.	.	.	.	.	.	.	.	32c\	.	.	32cc\yy	.	32cc\	.	.	.	.	.	.	.	.	.	.	.	.	.	.	.	.	.	.	.	.	.	.	.	.	.	.
.	.	.	.	.	.	.	.	.	.	.	.	.	.	32c\	.	.	32cc\yy	.	32cc\	.	.	.	.	.	.	.	.	.	.	.	.	.	.	.	.	.	.	.	.	.	.	.	.	.	.
.	.	.	.	.	.	.	.	.	.	.	.	.	.	32c\	.	.	32cc\yy	.	32cc\	.	.	.	.	.	.	.	.	.	.	.	.	.	.	.	.	.	.	.	.	.	.	.	.	.	.
.	.	.	.	.	.	.	.	.	.	.	.	.	.	32c\	.	.	32cc\yy	.	32cc\	.	.	.	.	.	.	.	.	.	.	.	.	.	.	.	.	.	.	.	.	.	.	.	.	.	.
.	.	.	.	.	.	.	.	.	.	.	.	.	.	32c\	.	.	32cc\yy	.	32cc\	.	.	.	.	.	.	.	.	.	.	.	.	.	.	.	.	.	.	.	.	.	.	.	.	.	.
.	.	.	.	.	.	.	.	.	.	.	.	.	.	32c\	.	.	32cc\yy	.	32cc\	.	.	.	.	.	.	.	.	.	.	.	.	.	.	.	.	.	.	.	.	.	.	.	.	.	.
.	.	.	.	.	.	.	.	.	.	.	.	.	.	32c\	.	.	32cc\yy	.	32cc\	.	.	.	.	.	.	.	.	.	.	.	.	.	.	.	.	.	.	.	.	.	.	.	.	.	.
.	.	.	.	.	.	.	.	.	.	.	.	.	.	32c\JJJ	.	.	32cc\JJJyy	.	32cc\JJJ	.	.	.	.	.	.	.	.	.	.	.	.	.	.	.	.	.	.	.	.	.	.	.	.	.	.
*	*	*	*	*	*	*	*	*	*	*	*	*	*	*Xtremolo	*	*	*Xtremolo	*	*Xtremolo	*	*	*	*	*	*	*	*	*	*	*	*	*	*	*	*	*	*	*	*	*	*	*	*	*	*
4C/	.	.	4C/	.	.	4c\	-ry	.	4c/	.	4cc\	-ry	.	4c\	.	.	4cc\yy	.	4cc\	.	.	.	.	.	.	.	.	.	.	.	.	.	.	.	.	.	.	.	.	.	.	.	.	.	.
!	!	!LO:DY:a	!	!	!	!	!	!	!	!	!	!	!LO:DY:a	!	!	!LO:DY:a	!	!LO:DY:a	!	!LO:DY:a	!	!	!	!	!	!	!	!	!	!	!	!	!	!	!	!	!	!	!	!	!	!	!	!	!
.	.	p	.	.	p	.	.	.	.	.	.	.	p	.	.	p	.	p	.	p	.	.	.	.	.	.	.	.	.	.	.	.	.	.	.	.	.	.	.	.	.	.	.	.	.
(4c/	4r	.	4c\	.	.	4e-\	i	.	4e-/	.	4g/	i	.	(4e-/	4c\	.	4e-/	.	4g/	.	4r	.	4r	.	4r	.	.	.	4r	4ryy	.	(4c\ 4e-	4ryy	p	4r	4r	.	4g/	4e-\	p	4r	4ryy	.	4r	.
*	*	*	*	*	*	*	*	*	*	*	*	*	*	*	*	*	*	*	*	*	*	*	*	*	*	*	*	*	*v	*v	*	*	*	*	*v	*v	*	*	*	*	*v	*v	*	*	*
=25	=25	=25	=25	=25	=25	=25	=25	=25	=25	=25	=25	=25	=25	=25	=25	=25	=25	=25	=25	=25	=25	=25	=25	=25	=25	=25	=25	=25	=25	=25	=25	=25	=25	=25	=25	=25	=25	=25	=25	=25	=25	=25
2Bn/	1r	.	2Bn\	.	.	2d\	mor-	.	2f/	.	2a-/	mor-	.	(>2d/	2Bn\	.	1f	.	[2a-/	.	1r	.	1r	.	1r	.	1r	.	1r	.	1d	2Bn\	.	1r	.	(2a-/	1f	.	1r	.	1r	.
2B-X/	.	.	4.B-X\	.	.	4.d\	-skie	.	4.f/	.	4.a-/	-skie	.	2d/	2B-X\	.	.	.	(4.a-/]	.	.	.	.	.	.	.	.	.	.	.	.	2B-X\	.	.	.	4.a-/	.	.	.	.	.	.
.	.	.	8B-\	.	.	8d\	od-	.	8f/	.	8b-/	od-	.	.	.	.	.	.	8b-/)	.	.	.	.	.	.	.	.	.	.	.	.	.	.	.	.	8b-/)	.	.	.	.	.	.
*	*	*	*	*	*	*	*	*	*	*	*	*	*	*v	*v	*	*	*	*	*	*	*	*	*	*	*	*	*	*	*	*v	*v	*	*	*	*	*	*	*	*	*	*
=26	=26	=26	=26	=26	=26	=26	=26	=26	=26	=26	=26	=26	=26	=26	=26	=26	=26	=26	=26	=26	=26	=26	=26	=26	=26	=26	=26	=26	=26	=26	=26	=26	=26	=26	=26	=26	=26	=26	=26	=26
*	*	*	*	*	*	*	*	*	*	*	*	*	*	*	*	*	*	*	*	*	*	*	*	*	*	*	*	*	*	*	*	*^	*	*	*	*	*	*	*	*
*tremolo	*tremolo	*	*	*	*	*	*	*	*	*	*	*	*	*tremolo	*	*tremolo	*	*tremolo	*	*	*	*	*	*	*	*	*	*	*	*	*	*	*	*	*	*	*	*	*	*	*
32B-/LLL	32E-\LLL	.	2E-\	.	.	2e-\	-mę-	.	2e-/	.	2g/	-mę-	.	32B-\) 32e-LLL	.	32e-/LLL	.	32g/LLL	.	2r	.	2r	.	2r	.	2RgyT/	p	2r	.	((2E-\) 2e-	.	2r	2.ryy	.	[2g/	[2e-\	.	2r	.	2r	.
32B-/	32E-\	.	.	.	.	.	.	.	.	.	.	.	.	32B-\ 32e-	.	32e-/	.	32g/	.	.	.	.	.	.	.	.	.	.	.	.	.	.	.	.	.	.	.	.	.	.	.
32B-/	32E-\	.	.	.	.	.	.	.	.	.	.	.	.	32B-\ 32e-	.	32e-/	.	32g/	.	.	.	.	.	.	.	.	.	.	.	.	.	.	.	.	.	.	.	.	.	.	.
32B-/	32E-\	.	.	.	.	.	.	.	.	.	.	.	.	32B-\ 32e-	.	32e-/	.	32g/	.	.	.	.	.	.	.	.	.	.	.	.	.	.	.	.	.	.	.	.	.	.	.
32B-/	32E-\	.	.	.	.	.	.	.	.	.	.	.	.	32B-\ 32e-	.	32e-/	.	32g/	.	.	.	.	.	.	.	.	.	.	.	.	.	.	.	.	.	.	.	.	.	.	.
32B-/	32E-\	.	.	.	.	.	.	.	.	.	.	.	.	32B-\ 32e-	.	32e-/	.	32g/	.	.	.	.	.	.	.	.	.	.	.	.	.	.	.	.	.	.	.	.	.	.	.
32B-/	32E-\	.	.	.	.	.	.	.	.	.	.	.	.	32B-\ 32e-	.	32e-/	.	32g/	.	.	.	.	.	.	.	.	.	.	.	.	.	.	.	.	.	.	.	.	.	.	.
32B-/	32E-\	.	.	.	.	.	.	.	.	.	.	.	.	32B-\ 32e-	.	32e-/	.	32g/	.	.	.	.	.	.	.	.	.	.	.	.	.	.	.	.	.	.	.	.	.	.	.
32B-/	32E-\	.	.	.	.	.	.	.	.	.	.	.	.	32B-\ 32e-	.	32e-/	.	32g/	.	.	.	.	.	.	.	.	.	.	.	.	.	.	.	.	.	.	.	.	.	.	.
32B-/	32E-\	.	.	.	.	.	.	.	.	.	.	.	.	32B-\ 32e-	.	32e-/	.	32g/	.	.	.	.	.	.	.	.	.	.	.	.	.	.	.	.	.	.	.	.	.	.	.
32B-/	32E-\	.	.	.	.	.	.	.	.	.	.	.	.	32B-\ 32e-	.	32e-/	.	32g/	.	.	.	.	.	.	.	.	.	.	.	.	.	.	.	.	.	.	.	.	.	.	.
32B-/	32E-\	.	.	.	.	.	.	.	.	.	.	.	.	32B-\ 32e-	.	32e-/	.	32g/	.	.	.	.	.	.	.	.	.	.	.	.	.	.	.	.	.	.	.	.	.	.	.
32B-/	32E-\	.	.	.	.	.	.	.	.	.	.	.	.	32B-\ 32e-	.	32e-/	.	32g/	.	.	.	.	.	.	.	.	.	.	.	.	.	.	.	.	.	.	.	.	.	.	.
32B-/	32E-\	.	.	.	.	.	.	.	.	.	.	.	.	32B-\ 32e-	.	32e-/	.	32g/	.	.	.	.	.	.	.	.	.	.	.	.	.	.	.	.	.	.	.	.	.	.	.
32B-/	32E-\	.	.	.	.	.	.	.	.	.	.	.	.	32B-\ 32e-	.	32e-/	.	32g/	.	.	.	.	.	.	.	.	.	.	.	.	.	.	.	.	.	.	.	.	.	.	.
32B-/)JJJ	32E-\JJJ	.	.	.	.	.	.	.	.	.	.	.	.	32B-\) 32e-JJJ	.	32e-/JJJ	.	32g/JJJ	.	.	.	.	.	.	.	.	.	.	.	.	.	.	.	.	.	.	.	.	.	.	.
*	*Xtremolo	*	*	*	*	*	*	*	*	*	*	*	*	*Xtremolo	*	*Xtremolo	*	*Xtremolo	*	*	*	*	*	*	*	*	*	*	*	*	*	*	*	*	*	*	*	*	*	*	*
4B-/	4E-\	.	4E-\	.	.	4B-\	-ty	.	4e-/	.	4g/	-ty	.	4B-\ 4e-	.	4e-/	.	4g/	.	4r	.	4r	.	4r	.	4Rgy/	.	4r	.	4E-\)) 4B-	.	4r	.	.	4g/]	4e-\]	.	4r	.	4r	.
!	!	!	!	!	!	!	!	!	!	!	!	!	!	!	!	!	!LO:DY:a	!	!LO:DY:a	!	!	!	!	!	!	!	!	!	!	!	!	!	!	!	!	!	!	!	!	!	!
.	.	f	.	.	f	.	.	.	.	.	.	.	.	.	.	.	f	.	f	.	.	.	.	.	.	.	.	.	.	.	.	.	.	.	.	.	.	.	.	.	.
4BB-/	4BB-\	.	4B-\	.	.	4B-\	i	.	4b-\	.	4b-\	I	.	4B-/	.	4b-\	.	4b-\	.	4BB-/	.	4G/	.	4B-/	.	4r	.	4b-X\	.	4BB-\ 4B-	f	4B-/	4B-\	f	4g/	4g\	f	4b-'\	.	4bb-\	f
*v	*v	*	*	*	*	*	*	*	*	*	*	*	*	*	*	*	*	*	*	*	*	*	*	*	*	*	*	*	*	*	*	*	*	*	*v	*v	*	*	*	*	*
=27	=27	=27	=27	=27	=27	=27	=27	=27	=27	=27	=27	=27	=27	=27	=27	=27	=27	=27	=27	=27	=27	=27	=27	=27	=27	=27	=27	=27	=27	=27	=27	=27	=27	=27	=27	=27	=27	=27	=27
2E-\	.	2c\	.	.	2e-\	Wy	.	(2ee-\	.	(2ee-\	wy	.	(2e-\	.	(2ee-\	.	(2ee-\	.	2E-\	.	2c\	.	2e-\	.	1r	.	2ee-X\	.	2E-\ 2e-	.	2e-/	2e-\	.	(2ee-\	.	(2ee-\	.	(2eee-\	.
4B-\	.	4B-\	.	.	4B-\	.	.	4b-\)	.	(4b-\)	na-	.	4B-/)	.	4b-\)	.	4b-\)	.	4B-\	.	4B-\	.	4B-/	.	.	.	4b-X\	.	4BB-\ 4B-	.	4B-/	4B-\	.	4b-\)	.	4bb-\)	.	4bb-\)	.
4G\	.	4G\	.	.	4G/	na-	.	4g/	.	4g/)	.	.	4G/	.	4g/	.	4g/	.	4G\	.	4G/	.	4g\	.	.	.	4g/	.	4GG/ 4G	.	4G/	4G\	.	4g'\	.	4gg'\	.	4gg'\	.
!!LO:PB:g=original
=28	=28	=28	=28	=28	=28	=28	=28	=28	=28	=28	=28	=28	=28	=28	=28	=28	=28	=28	=28	=28	=28	=28	=28	=28	=28	=28	=28	=28	=28	=28	=28	=28	=28	=28	=28	=28	=28	=28	=28
*	*	*	*	*	*	*	*	*	*	*	*	*	*	*	*	*	*	*	*	*	*	*	*	*	*	*	*^	*	*^	*	*	*	*	*^	*	*^	*	*	*
*tremolo	*	*	*	*	*	*	*	*	*	*	*	*	*tremolo	*	*tremolo	*	*tremolo	*	*	*	*	*	*	*	*	*	*	*	*	*	*	*	*	*	*	*	*	*	*	*	*	*	*
32E-\LLL	.	2E-\	.	.	2E-/	-ro-	.	2e-/	.	2e-/	-ro-	.	32E-/LLL	.	32e-/LLL	.	32e-/LLL	.	2.E-\	.	2.E-/	.	2.e-\	.	1r	.	2.e-X/	2.e-\	.	2.EE-/ 2.E-	2.ryy	.	2.E-/	2.E-\	.	2.e-/	2.e-\	.	2.ee-/	2.ee-\	.	2.ee-\	.
32E-\	.	.	.	.	.	.	.	.	.	.	.	.	32E-/	.	32e-/	.	32e-/	.	.	.	.	.	.	.	.	.	.	.	.	.	.	.	.	.	.	.	.	.	.	.	.	.	.
32E-\	.	.	.	.	.	.	.	.	.	.	.	.	32E-/	.	32e-/	.	32e-/	.	.	.	.	.	.	.	.	.	.	.	.	.	.	.	.	.	.	.	.	.	.	.	.	.	.
32E-\	.	.	.	.	.	.	.	.	.	.	.	.	32E-/	.	32e-/	.	32e-/	.	.	.	.	.	.	.	.	.	.	.	.	.	.	.	.	.	.	.	.	.	.	.	.	.	.
32E-\	.	.	.	.	.	.	.	.	.	.	.	.	32E-/	.	32e-/	.	32e-/	.	.	.	.	.	.	.	.	.	.	.	.	.	.	.	.	.	.	.	.	.	.	.	.	.	.
32E-\	.	.	.	.	.	.	.	.	.	.	.	.	32E-/	.	32e-/	.	32e-/	.	.	.	.	.	.	.	.	.	.	.	.	.	.	.	.	.	.	.	.	.	.	.	.	.	.
32E-\	.	.	.	.	.	.	.	.	.	.	.	.	32E-/	.	32e-/	.	32e-/	.	.	.	.	.	.	.	.	.	.	.	.	.	.	.	.	.	.	.	.	.	.	.	.	.	.
32E-\	.	.	.	.	.	.	.	.	.	.	.	.	32E-/	.	32e-/	.	32e-/	.	.	.	.	.	.	.	.	.	.	.	.	.	.	.	.	.	.	.	.	.	.	.	.	.	.
32E-\	.	.	.	.	.	.	.	.	.	.	.	.	32E-/	.	32e-/	.	32e-/	.	.	.	.	.	.	.	.	.	.	.	.	.	.	.	.	.	.	.	.	.	.	.	.	.	.
32E-\	.	.	.	.	.	.	.	.	.	.	.	.	32E-/	.	32e-/	.	32e-/	.	.	.	.	.	.	.	.	.	.	.	.	.	.	.	.	.	.	.	.	.	.	.	.	.	.
32E-\	.	.	.	.	.	.	.	.	.	.	.	.	32E-/	.	32e-/	.	32e-/	.	.	.	.	.	.	.	.	.	.	.	.	.	.	.	.	.	.	.	.	.	.	.	.	.	.
32E-\	.	.	.	.	.	.	.	.	.	.	.	.	32E-/	.	32e-/	.	32e-/	.	.	.	.	.	.	.	.	.	.	.	.	.	.	.	.	.	.	.	.	.	.	.	.	.	.
32E-\	.	.	.	.	.	.	.	.	.	.	.	.	32E-/	.	32e-/	.	32e-/	.	.	.	.	.	.	.	.	.	.	.	.	.	.	.	.	.	.	.	.	.	.	.	.	.	.
32E-\	.	.	.	.	.	.	.	.	.	.	.	.	32E-/	.	32e-/	.	32e-/	.	.	.	.	.	.	.	.	.	.	.	.	.	.	.	.	.	.	.	.	.	.	.	.	.	.
32E-\	.	.	.	.	.	.	.	.	.	.	.	.	32E-/	.	32e-/	.	32e-/	.	.	.	.	.	.	.	.	.	.	.	.	.	.	.	.	.	.	.	.	.	.	.	.	.	.
32E-\JJJ	.	.	.	.	.	.	.	.	.	.	.	.	32E-/JJJ	.	32e-/JJJ	.	32e-/JJJ	.	.	.	.	.	.	.	.	.	.	.	.	.	.	.	.	.	.	.	.	.	.	.	.	.	.
*Xtremolo	*	*	*	*	*	*	*	*	*	*	*	*	*Xtremolo	*	*Xtremolo	*	*Xtremolo	*	*	*	*	*	*	*	*	*	*	*	*	*	*	*	*	*	*	*	*	*	*	*	*	*	*
4E-\	p	4E-\	.	.	4E-/	-dy	.	4e-/	.	4e-/	-dy	.	4E-/	.	4e-/	.	4e-/	.	.	.	.	.	.	.	.	.	.	.	.	.	.	.	.	.	.	.	.	.	.	.	.	.	.
!	!	!	!	!	!	!	!	!	!	!	!	!	!	!	!	!	!	!LO:DY:a	!	!	!	!	!	!	!	!	!	!	!	!	!	!LO:DY:a	!	!	!	!	!	!	!	!	!	!	!
(8E-\L	.	4r	.	.	4r	.	.	4r	.	4r	.	.	(8e-\L	.	(8e-/L	.	(8e-/L	p	4r	.	4r	.	4r	.	.	.	4r	4r	.	(8e-\L	4rAA	p	4r	4ryy	.	(8e-/L	4ryy	p	4r	4ryy	.	4r	.
8D\J)	.	.	.	.	.	.	.	.	.	.	.	.	8d\J)	.	8d/J)	.	8f/J)	.	.	.	.	.	.	.	.	.	.	.	.	8d\J	.	.	.	.	.	8f/J)	.	.	.	.	.	.	.
*	*	*	*	*	*	*	*	*	*	*	*	*	*	*	*	*	*	*	*	*	*	*	*	*	*	*	*v	*v	*	*	*	*	*v	*v	*	*	*	*	*	*	*	*	*
=29	=29	=29	=29	=29	=29	=29	=29	=29	=29	=29	=29	=29	=29	=29	=29	=29	=29	=29	=29	=29	=29	=29	=29	=29	=29	=29	=29	=29	=29	=29	=29	=29	=29	=29	=29	=29	=29	=29	=29	=29	=29
!	!	!	!	!	!	!	!LO:DY:a	!	!	!	!	!LO:DY:a	!	!	!	!	!	!	!	!	!	!	!	!	!	!	!	!	!	!	!	!	!	!	!	!	!	!	!	!	!
4.C/	.	4.C/	.	.	4.e-\	ie-	p	4.g/	.	4.g/	ie-	p	4.c\	.	4.e-/	.	4.g/	.	1r	.	1r	.	1r	.	1r	.	1r	.	[2c\)	1rAA	.	1r	.	2.g/	2.e-/	.	2r	1rf	.	2r	.
8C/	.	8C/	.	.	8e-\	-dno	.	8g/	.	8g/	-dno	.	8c\ 8e-	.	8g/	.	8g/	.	.	.	.	.	.	.	.	.	.	.	.	.	.	.	.	.	.	.	.	.	.	.	.
4.c\	.	4.c\	.	.	4e-\	zgod-	.	4g/	.	4ee-\	zgod-	.	4c\ 4e-	.	4g/	.	4ee-\	.	.	.	.	.	.	.	.	.	.	.	4.c\]	.	.	.	.	.	.	.	(4ee-/	.	.	(4eee-\	p
.	.	.	.	.	4e-\	-nem	.	4f/	.	4an/	-nem	.	4e-\	.	4f/	.	4an/	.	.	.	.	.	.	.	.	.	.	.	.	.	.	.	.	([4f/	[4e-\	.	4an/)	.	.	4aan\)	.
8c-X\	.	8c-X\	.	.	.	.	.	.	.	.	.	.	.	.	.	.	.	.	.	.	.	.	.	.	.	.	.	.	8c-X\	.	.	.	.	.	.	.	.	.	.	.	.
=30	=30	=30	=30	=30	=30	=30	=30	=30	=30	=30	=30	=30	=30	=30	=30	=30	=30	=30	=30	=30	=30	=30	=30	=30	=30	=30	=30	=30	=30	=30	=30	=30	=30	=30	=30	=30	=30	=30	=30	=30	=30
*tremolo	*	*	*	*	*	*	*	*	*	*	*	*	*tremolo	*	*tremolo	*	*tremolo	*	*	*	*	*	*	*	*	*	*	*	*	*	*	*	*	*	*	*	*	*	*	*	*
32B-\LLL	.	2B-\	.	.	(4e-\	pie-	.	2f/	.	2b-\	pie-	.	32e-\LLL	.	32f/LLL	.	32b-\LLL	.	1r	.	1r	.	1r	.	1r	.	1r	.	2.B-\	2rAA	.	2r	.	2.f/]	4e-\]	.	2..b-/	2..ryy	.	2.bb-\	.
32B-\	.	.	.	.	.	.	.	.	.	.	.	.	32e-\	.	32f/	.	32b-\	.	.	.	.	.	.	.	.	.	.	.	.	.	.	.	.	.	.	.	.	.	.	.	.
32B-\	.	.	.	.	.	.	.	.	.	.	.	.	32e-\	.	32f/	.	32b-\	.	.	.	.	.	.	.	.	.	.	.	.	.	.	.	.	.	.	.	.	.	.	.	.
32B-\	.	.	.	.	.	.	.	.	.	.	.	.	32e-\	.	32f/	.	32b-\	.	.	.	.	.	.	.	.	.	.	.	.	.	.	.	.	.	.	.	.	.	.	.	.
32B-\	.	.	.	.	.	.	.	.	.	.	.	.	32e-\	.	32f/	.	32b-\	.	.	.	.	.	.	.	.	.	.	.	.	.	.	.	.	.	.	.	.	.	.	.	.
32B-\	.	.	.	.	.	.	.	.	.	.	.	.	32e-\	.	32f/	.	32b-\	.	.	.	.	.	.	.	.	.	.	.	.	.	.	.	.	.	.	.	.	.	.	.	.
32B-\	.	.	.	.	.	.	.	.	.	.	.	.	32e-\	.	32f/	.	32b-\	.	.	.	.	.	.	.	.	.	.	.	.	.	.	.	.	.	.	.	.	.	.	.	.
32B-\	.	.	.	.	.	.	.	.	.	.	.	.	32e-\JJJ	.	32f/	.	32b-\	.	.	.	.	.	.	.	.	.	.	.	.	.	.	.	.	.	.	.	.	.	.	.	.
32B-\	.	.	.	.	8d\L	.	.	.	.	.	.	.	32d\LLL	.	32f/	.	32b-\	.	.	.	.	.	.	.	.	.	.	.	.	.	.	.	.	.	8d\L	.	.	.	.	.	.
32B-\	.	.	.	.	.	.	.	.	.	.	.	.	32d\	.	32f/	.	32b-\	.	.	.	.	.	.	.	.	.	.	.	.	.	.	.	.	.	.	.	.	.	.	.	.
32B-\	.	.	.	.	.	.	.	.	.	.	.	.	32d\	.	32f/	.	32b-\	.	.	.	.	.	.	.	.	.	.	.	.	.	.	.	.	.	.	.	.	.	.	.	.
32B-\	.	.	.	.	.	.	.	.	.	.	.	.	32d\	.	32f/	.	32b-\	.	.	.	.	.	.	.	.	.	.	.	.	.	.	.	.	.	.	.	.	.	.	.	.
32B-\	.	.	.	.	8c\J)	.	.	.	.	.	.	.	32c\	.	32f/	.	32b-\	.	.	.	.	.	.	.	.	.	.	.	.	.	.	.	.	.	8c\J	.	.	.	.	.	.
32B-\	.	.	.	.	.	.	.	.	.	.	.	.	32c\	.	32f/	.	32b-\	.	.	.	.	.	.	.	.	.	.	.	.	.	.	.	.	.	.	.	.	.	.	.	.
32B-\	.	.	.	.	.	.	.	.	.	.	.	.	32c\	.	32f/	.	32b-\	.	.	.	.	.	.	.	.	.	.	.	.	.	.	.	.	.	.	.	.	.	.	.	.
32B-\JJJ	.	.	.	.	.	.	.	.	.	.	.	.	32c\JJJ	.	32f/JJJ	.	32b-\JJJ	.	.	.	.	.	.	.	.	.	.	.	.	.	.	.	.	.	.	.	.	.	.	.	.
*Xtremolo	*	*	*	*	*	*	*	*	*	*	*	*	*Xtremolo	*	*Xtremolo	*	*Xtremolo	*	*	*	*	*	*	*	*	*	*	*	*	*	*	*	*	*	*	*	*	*	*	*	*
4B-\	.	4B-\	.	.	4d\	-niem	.	4f/	.	4b-\	-niem	.	4d\	.	4f/	.	4b-\	.	.	.	.	.	.	.	.	.	.	.	.	4rAA	.	4r	.	.	4d\	.	.	.	.	.	.
!	!	!	!	!	!	!	!	!	!	!	!	!	!	!	!	!	!	!	!	!	!	!	!	!	!	!	!	!	!LO:TX:t=P:problem= brak pauzy 8r	!	!	!	!	!	!	!	!	!	!	!	!
8r	.	8r	.	.	8r	.	.	8r	.	8r	.	.	8r	.	8r	.	8r	.	.	.	.	.	.	.	.	.	.	.	8ryy	4ryy	.	8r	.	8r	8rd	.	.	.	.	8r	.
!	!	!	!	!	!	!	!	!	!	!	!	!	!	!	!	!	!	!LO:HP:a	!	!	!	!	!	!	!	!	!	!	!	!	!	!	!	!	!	!	!	!	!	!	!LO:HP:t=cresc&colon;
8BB-/	<	8BB-/	.	.	8d\	śpie-	.	8f/	.	8b-\	śpie-	<	8d\	.	8f/	.	8b-/	<	.	.	.	.	.	.	.	.	.	.	8B-\ 8BB-	.	.	8B-/ 8f	.	8ryy	8b-/) 8d/	.	8ff/	8dd\	.	8bb-|\	<
*	*	*	*	*	*	*	*	*	*	*	*	*	*	*	*	*	*	*	*	*	*	*	*	*	*	*	*	*	*v	*v	*	*	*	*v	*v	*	*	*	*	*	*
=31	=31	=31	=31	=31	=31	=31	=31	=31	=31	=31	=31	=31	=31	=31	=31	=31	=31	=31	=31	=31	=31	=31	=31	=31	=31	=31	=31	=31	=31	=31	=31	=31	=31	=31	=31	=31	=31	=31	=31
!	!	!	!	!	!	!	!	!	!	!	!	!	!	!	!	!	!	!	!	!	!	!	!	!	!	!	!	!	!	!	!	!LO:HP:t=cresc&colon;	!	!	!	!	!	!	!
4.E-\	.	4E-\	.	.	(8.e-\L	-waj-	.	(8.g/L	.	(8.b-/L	-waj-	.	8.e-\L	.	(8.g/L	.	(8.b-/L	.	1r	.	1r	.	1r	.	1r	.	((4.g/ 4.b-X	.	4.E-\ 4.B-	.	4.e-\ 4.g	<	4.e-/ 4.b-	<	4gg/	(4ee-\	.	(4bb-\	.
!	!	!	!	!	!	!	!	!	!	!	!	!	!	!	!	!	!	!LO:HP:a	!	!	!	!	!	!	!	!	!	!	!	!	!	!	!	!	!	!	!	!	!
.	<	.	.	.	16B-\Jk)	.	.	16e-/Jk)	.	16g/Jk)	.	.	16B-\Jk	.	16e-/Jk)	.	16g/Jk)	<	.	.	.	.	.	.	.	.	.	.	.	.	.	.	.	.	.	.	.	.	.
.	.	8E-\	.	.	8B-\	-cie	.	8e-/	.	8g/	-cie	.	8B-/	.	8e-/	.	8g/	.	.	.	.	.	.	.	.	.	.	.	.	.	.	.	.	.	8ee-/	8b-\)	.	8gg\)	.
8r	.	8r	.	.	8r	.	.	8r	.	8r	.	.	8r	.	8r	.	8r	.	.	.	.	.	.	.	.	.	8e-/)) 8g	.	8r	.	8r	.	8r	.	8r	8ryy	.	8r	.
4.G\	.	4G\	.	.	(8.B-\L	wie-	.	4e-/	.	(8.ee-\L	wie-	.	(8.B-\L	.	[4e-/	.	(8.ee-\L	.	.	.	.	.	.	.	.	.	8r	.	4.G\ 4.B-	.	4.e-\ 4.g	.	4.e-/ 4.b-	.	4ddd/	4.ee-\	.	(4eee-\	.
.	.	.	.	.	.	.	.	.	.	.	.	.	.	.	.	.	.	.	.	.	.	.	.	.	.	.	((4b-X/ 4ee-X	.	.	.	.	.	.	.	.	.	.	.	.
.	.	.	.	.	16e-\Jk)	.	.	.	.	16b-\Jk)	.	.	16e-\Jk)	.	.	.	16b-\Jk)	.	.	.	.	.	.	.	.	.	.	.	.	.	.	.	.	.	.	.	.	.	.
.	.	8G\	.	.	8e-\	-cznie	.	8e-/	.	8b-\	-cznie	.	8e-\	.	8e-/]	.	8b-\	[	.	.	.	.	.	.	.	.	.	.	.	.	.	.	.	.	8gg/	.	.	8bb-\)	.
8r	[[	8r	.	.	8r	.	.	8r	.	8r	.	.	8r	.	8r	.	8r	.	.	.	.	.	.	.	.	.	8g/)) 8b-	.	8r	.	8r	.	8r	[	8r	8ryy	.	8r	.
*	*	*	*	*	*	*	*	*	*	*	*	*	*	*	*	*	*	*	*	*	*	*	*	*	*	*	*	*	*	*	*	*	*	*	*v	*v	*	*	*
!!LO:PB:g=original
=32	=32	=32	=32	=32	=32	=32	=32	=32	=32	=32	=32	=32	=32	=32	=32	=32	=32	=32	=32	=32	=32	=32	=32	=32	=32	=32	=32	=32	=32	=32	=32	=32	=32	=32	=32	=32	=32	=32
*^	*	*	*	*	*^	*	*	*	*	*	*	*	*^	*	*^	*	*^	*	*	*	*	*	*	*	*	*	*	*	*^	*	*	*	*^	*	*	*	*	*
*	*	*	*	*	*	*	*	*	*	*	*	*	*	*	*	*	*	*	*	*	*	*	*	*	*	*	*	*	*	*	*	*	*	*	*	*	*	*	*	*	*^	*	*	*	*
!	!	!	!	!	!	!	!	!	!	!	!	!	!	!	!	!	!	!	!	!	!	!	!	!	!	!	!	!	!	!	!	!	!	!	!	!	!	!	!	!	!LO:DY:a	!	!	!	!	!
([2A-/	1r	.	2A-\	.	p	4.e-/	2c\	Świę-	.	2a-/	.	2cc\	Świę-	p	(1c	1r	p	(>4.e-/	1r	p	(1cc	1r	p	1r	.	1r	.	1r	.	1r	.	1r	.	1c	(>2.A-\	p	1r	.	(1cc	4.e-\	p	p	1r	.	1r	.
.	.	.	.	.	.	8en/	.	.	.	.	.	.	.	.	.	.	.	8en/	.	.	.	.	.	.	.	.	.	.	.	.	.	.	.	.	.	.	.	.	.	8eX\	.	.	.	.	.	.
4A-/]	.	.	4A-\	.	.	4f/	4c\	-ty	.	4a-/	.	4cc\	-ty!	.	.	.	.	4f/	.	.	.	.	.	.	.	.	.	.	.	.	.	.	.	.	.	.	.	.	.	4f\	.	.	.	.	.	.
4An/	.	.	4r	.	.	4rdd	4r	.	.	4r	.	4r	.	.	.	.	.	4e-X/	.	.	.	.	.	.	.	.	.	.	.	.	.	.	.	.	4An\)	.	.	.	.	4e-\	.	.	.	.	.	.
*	*	*	*	*	*	*	*	*	*	*	*	*	*	*	*	*	*	*	*	*	*	*	*	*	*	*	*	*	*	*	*	*	*	*	*	*	*	*	*	*	*v	*v	*	*	*	*
*	*	*	*	*	*	*v	*v	*	*	*	*	*	*	*	*	*	*	*	*	*	*	*	*	*	*	*	*	*	*	*	*	*	*	*	*	*	*	*	*	*	*	*	*	*	*
=33	=33	=33	=33	=33	=33	=33	=33	=33	=33	=33	=33	=33	=33	=33	=33	=33	=33	=33	=33	=33	=33	=33	=33	=33	=33	=33	=33	=33	=33	=33	=33	=33	=33	=33	=33	=33	=33	=33	=33	=33	=33	=33	=33	=33
(4.B-/)	1r	.	4.B-\	.	.	(2f\	Świę-	.	(4.f/	.	2dd\	Świę-	.	2d\	1r	.	4.f/	1r	.	2dd/	1r	.	1r	.	1r	.	1r	.	1r	.	1r	.	(2d/	(4.B-\	.	1r	.	(2dd/)	4.f\	.	1r	.	1r	.
8Bn/	.	.	8Bn\	.	.	.	.	.	8a-/)	.	.	.	.	.	.	.	8a-/	.	.	.	.	.	.	.	.	.	.	.	.	.	.	.	.	8Bn\	.	.	.	.	8a-\	.	.	.	.	.
4c/)	.	.	4c\	.	.	4e-\)	-ty	.	4g/	.	4ee-\	-ty!	.	4e-\)	.	.	4g/)	.	.	4ee-/)	.	.	.	.	.	.	.	.	.	.	.	.	4e-/)	4c\)	.	.	.	4ee-/)	4g\	.	.	.	.	.
4r	.	.	4r	.	.	4r	.	.	4r	.	4r	.	.	4r	.	.	4r	.	.	4r	.	.	.	.	.	.	.	.	.	.	.	.	4r	4r	.	.	.	4r	4r	.	.	.	.	.
*	*	*	*	*	*	*	*	*	*	*	*	*	*	*v	*v	*	*	*	*	*v	*v	*	*	*	*	*	*	*	*	*	*	*	*v	*v	*	*	*	*	*	*	*	*	*	*
*v	*v	*	*	*	*	*	*	*	*	*	*	*	*	*	*	*v	*v	*	*	*	*	*	*	*	*	*	*	*	*	*	*	*	*	*	*	*	*	*	*	*	*
=34	=34	=34	=34	=34	=34	=34	=34	=34	=34	=34	=34	=34	=34	=34	=34	=34	=34	=34	=34	=34	=34	=34	=34	=34	=34	=34	=34	=34	=34	=34	=34	=34	=34	=34	=34	=34	=34	=34	=34
*	*	*	*	*	*^	*	*	*	*	*	*	*	*	*	*	*	*	*	*	*	*	*	*	*	*	*	*^	*	*	*	*^	*	*	*	*	*^	*	*	*
*	*	*	*	*	*	*	*	*	*	*	*	*	*	*tremolo	*	*tremolo	*	*tremolo	*	*	*	*	*	*	*	*	*	*	*	*	*	*	*	*	*	*	*	*	*	*	*	*	*
!	!	!	!	!LO:DY:b	!	!	!	!	!	!	!	!	!LO:DY:b	!	!	!	!	!	!	!	!	!	!	!	!	!	!	!	!	!	!	!	!	!	!	!	!	!	!	!	!	!	!
4AA-/	ff	(2A-\	.	ff	1f	(>2c\	Świę-	.	(2cc\	.	(2aa-\	Świę-	ff	32f 32a-LLL	ff	32cc\LLL	.	32aa-\LLL	ff	4r	.	4r	.	4r	ff	4r	.	2cc/	2a-X\	ff	1r	.	2f/	2f\	.	1ff	2cc\	ff	2ccc\	2aa-\	.	2fff\	ff
.	.	.	.	.	.	.	.	.	.	.	.	.	.	32f 32a-	.	32cc\	.	32aa-\	.	.	.	.	.	.	.	.	.	.	.	.	.	.	.	.	.	.	.	.	.	.	.	.	.
.	.	.	.	.	.	.	.	.	.	.	.	.	.	32f 32a-	.	32cc\	.	32aa-\	.	.	.	.	.	.	.	.	.	.	.	.	.	.	.	.	.	.	.	.	.	.	.	.	.
.	.	.	.	.	.	.	.	.	.	.	.	.	.	32f 32a-	.	32cc\	.	32aa-\	.	.	.	.	.	.	.	.	.	.	.	.	.	.	.	.	.	.	.	.	.	.	.	.	.
.	.	.	.	.	.	.	.	.	.	.	.	.	.	32f 32a-	.	32cc\	.	32aa-\	.	.	.	.	.	.	.	.	.	.	.	.	.	.	.	.	.	.	.	.	.	.	.	.	.
.	.	.	.	.	.	.	.	.	.	.	.	.	.	32f 32a-	.	32cc\	.	32aa-\	.	.	.	.	.	.	.	.	.	.	.	.	.	.	.	.	.	.	.	.	.	.	.	.	.
.	.	.	.	.	.	.	.	.	.	.	.	.	.	32f 32a-	.	32cc\	.	32aa-\	.	.	.	.	.	.	.	.	.	.	.	.	.	.	.	.	.	.	.	.	.	.	.	.	.
.	.	.	.	.	.	.	.	.	.	.	.	.	.	32f 32a-	.	32cc\	.	32aa-\	.	.	.	.	.	.	.	.	.	.	.	.	.	.	.	.	.	.	.	.	.	.	.	.	.
4A-\	.	.	.	.	.	.	.	.	.	.	.	.	.	32f 32a-	.	32cc\	.	32aa-\	.	4AA-/	.	4A-/	.	4c\	.	4Rdd\	.	.	.	.	.	.	.	.	.	.	.	.	.	.	.	.	.
.	.	.	.	.	.	.	.	.	.	.	.	.	.	32f 32a-	.	32cc\	.	32aa-\	.	.	.	.	.	.	.	.	.	.	.	.	.	.	.	.	.	.	.	.	.	.	.	.	.
.	.	.	.	.	.	.	.	.	.	.	.	.	.	32f 32a-	.	32cc\	.	32aa-\	.	.	.	.	.	.	.	.	.	.	.	.	.	.	.	.	.	.	.	.	.	.	.	.	.
.	.	.	.	.	.	.	.	.	.	.	.	.	.	32f 32a-	.	32cc\	.	32aa-\	.	.	.	.	.	.	.	.	.	.	.	.	.	.	.	.	.	.	.	.	.	.	.	.	.
.	.	.	.	.	.	.	.	.	.	.	.	.	.	32f 32a-	.	32cc\	.	32aa-\	.	.	.	.	.	.	.	.	.	.	.	.	.	.	.	.	.	.	.	.	.	.	.	.	.
.	.	.	.	.	.	.	.	.	.	.	.	.	.	32f 32a-	.	32cc\	.	32aa-\	.	.	.	.	.	.	.	.	.	.	.	.	.	.	.	.	.	.	.	.	.	.	.	.	.
.	.	.	.	.	.	.	.	.	.	.	.	.	.	32f 32a-	.	32cc\	.	32aa-\	.	.	.	.	.	.	.	.	.	.	.	.	.	.	.	.	.	.	.	.	.	.	.	.	.
.	.	.	.	.	.	.	.	.	.	.	.	.	.	32f 32a-	.	32cc\JJJ	.	32aa-\JJJ	.	.	.	.	.	.	.	.	.	.	.	.	.	.	.	.	.	.	.	.	.	.	.	.	.
4B-\	.	2B-\)	.	.	.	2B-\)	.	.	2a-/)	.	2dd\)	.	.	32f 32a-	.	32b-\LLL	.	32f\ 32ddLLL	.	4r	.	4r	.	4r	.	4r	.	2b-X/	2a-X\	.	.	.	2f/	2B-/	.	.	2dd\	.	2bb-/	2aa-\	.	2ddd\	.
.	.	.	.	.	.	.	.	.	.	.	.	.	.	32f 32a-	.	32b-\	.	32f\ 32dd	.	.	.	.	.	.	.	.	.	.	.	.	.	.	.	.	.	.	.	.	.	.	.	.	.
.	.	.	.	.	.	.	.	.	.	.	.	.	.	32f 32a-	.	32b-\	.	32f\ 32dd	.	.	.	.	.	.	.	.	.	.	.	.	.	.	.	.	.	.	.	.	.	.	.	.	.
.	.	.	.	.	.	.	.	.	.	.	.	.	.	32f 32a-	.	32b-\	.	32f\ 32dd	.	.	.	.	.	.	.	.	.	.	.	.	.	.	.	.	.	.	.	.	.	.	.	.	.
.	.	.	.	.	.	.	.	.	.	.	.	.	.	32f 32a-	.	32b-\	.	32f\ 32dd	.	.	.	.	.	.	.	.	.	.	.	.	.	.	.	.	.	.	.	.	.	.	.	.	.
.	.	.	.	.	.	.	.	.	.	.	.	.	.	32f 32a-	.	32b-\	.	32f\ 32dd	.	.	.	.	.	.	.	.	.	.	.	.	.	.	.	.	.	.	.	.	.	.	.	.	.
.	.	.	.	.	.	.	.	.	.	.	.	.	.	32f 32a-	.	32b-\	.	32f\ 32dd	.	.	.	.	.	.	.	.	.	.	.	.	.	.	.	.	.	.	.	.	.	.	.	.	.
.	.	.	.	.	.	.	.	.	.	.	.	.	.	32f 32a-	.	32b-\	.	32f\ 32dd	.	.	.	.	.	.	.	.	.	.	.	.	.	.	.	.	.	.	.	.	.	.	.	.	.
4BB-/	.	.	.	.	.	.	.	.	.	.	.	.	.	32f 32a-	.	32b-\	.	32f\ 32dd	.	4BB-/	.	4F/	.	4d\	.	4Rgy/	.	.	.	.	.	.	.	.	.	.	.	.	.	.	.	.	.
.	.	.	.	.	.	.	.	.	.	.	.	.	.	32f 32a-	.	32b-\	.	32f\ 32dd	.	.	.	.	.	.	.	.	.	.	.	.	.	.	.	.	.	.	.	.	.	.	.	.	.
.	.	.	.	.	.	.	.	.	.	.	.	.	.	32f 32a-	.	32b-\	.	32f\ 32dd	.	.	.	.	.	.	.	.	.	.	.	.	.	.	.	.	.	.	.	.	.	.	.	.	.
.	.	.	.	.	.	.	.	.	.	.	.	.	.	32f 32a-	.	32b-\	.	32f\ 32dd	.	.	.	.	.	.	.	.	.	.	.	.	.	.	.	.	.	.	.	.	.	.	.	.	.
.	.	.	.	.	.	.	.	.	.	.	.	.	.	32f 32a-	.	32b-\	.	32f\ 32dd	.	.	.	.	.	.	.	.	.	.	.	.	.	.	.	.	.	.	.	.	.	.	.	.	.
.	.	.	.	.	.	.	.	.	.	.	.	.	.	32f 32a-	.	32b-\	.	32f\ 32dd	.	.	.	.	.	.	.	.	.	.	.	.	.	.	.	.	.	.	.	.	.	.	.	.	.
.	.	.	.	.	.	.	.	.	.	.	.	.	.	32f 32a-	.	32b-\	.	32f\ 32dd	.	.	.	.	.	.	.	.	.	.	.	.	.	.	.	.	.	.	.	.	.	.	.	.	.
.	.	.	.	.	.	.	.	.	.	.	.	.	.	32f 32a-JJJ	.	32b-\JJJ	.	32f\ 32ddJJJ	.	.	.	.	.	.	.	.	.	.	.	.	.	.	.	.	.	.	.	.	.	.	.	.	.
*	*	*	*	*	*v	*v	*	*	*	*	*	*	*	*	*	*	*	*	*	*	*	*	*	*	*	*	*	*	*	*	*	*	*	*	*	*	*	*	*	*	*	*	*
=35	=35	=35	=35	=35	=35	=35	=35	=35	=35	=35	=35	=35	=35	=35	=35	=35	=35	=35	=35	=35	=35	=35	=35	=35	=35	=35	=35	=35	=35	=35	=35	=35	=35	=35	=35	=35	=35	=35	=35	=35	=35	=35
*	*	*	*	*	*	*	*	*	*	*	*	*	*	*	*	*	*	*	*	*	*	*	*	*	*tremolo	*	*	*	*	*	*	*	*	*	*	*	*	*	*	*	*	*
4E-\	.	4E-\	.	.	4B-\ 4e-	-ty!	.	4g/	.	4ee-\	-ty!	.	32e- 32gLLL	.	32e\- 32b-LLL	.	32g 32ee-LLL	.	4E-\	.	4G/	.	4e-\	.	32E-yLLL	.	1b-X	1g	.	1r	.	[1g	[>1e-	.	[1ee-	[>1ee-	.	[1bb-	[>1gg	.	[1eee-	.
.	.	.	.	.	.	.	.	.	.	.	.	.	32e- 32g	.	32e-\ 32b-	.	32g 32ee-	.	.	.	.	.	.	.	32E-	.	.	.	.	.	.	.	.	.	.	.	.	.	.	.	.	.
.	.	.	.	.	.	.	.	.	.	.	.	.	32e- 32g	.	32e-\ 32b-	.	32g 32ee-	.	.	.	.	.	.	.	32E-	.	.	.	.	.	.	.	.	.	.	.	.	.	.	.	.	.
.	.	.	.	.	.	.	.	.	.	.	.	.	32e- 32g	.	32e-\ 32b-	.	32g 32ee-	.	.	.	.	.	.	.	32E-	.	.	.	.	.	.	.	.	.	.	.	.	.	.	.	.	.
.	.	.	.	.	.	.	.	.	.	.	.	.	32e- 32g	.	32e-\ 32b-	.	32g 32ee-	.	.	.	.	.	.	.	32E-	.	.	.	.	.	.	.	.	.	.	.	.	.	.	.	.	.
.	.	.	.	.	.	.	.	.	.	.	.	.	32e- 32g	.	32e-\ 32b-	.	32g 32ee-	.	.	.	.	.	.	.	32E-	.	.	.	.	.	.	.	.	.	.	.	.	.	.	.	.	.
.	.	.	.	.	.	.	.	.	.	.	.	.	32e- 32g	.	32e-\ 32b-	.	32g 32ee-	.	.	.	.	.	.	.	32E-	.	.	.	.	.	.	.	.	.	.	.	.	.	.	.	.	.
.	.	.	.	.	.	.	.	.	.	.	.	.	32e- 32g	.	32e-\ 32b-	.	32g 32ee-	.	.	.	.	.	.	.	32E-	.	.	.	.	.	.	.	.	.	.	.	.	.	.	.	.	.
4e-\	.	4r	.	.	4r	.	.	4r	.	4r	.	.	32e- 32g	.	32e-\ 32b-	.	32g 32ee-	.	4e-\	.	4E-/	.	4e-\	.	32E-	.	.	.	.	.	.	.	.	.	.	.	.	.	.	.	.	.
.	.	.	.	.	.	.	.	.	.	.	.	.	32e- 32g	.	32e-\ 32b-	.	32g 32ee-	.	.	.	.	.	.	.	32E-	.	.	.	.	.	.	.	.	.	.	.	.	.	.	.	.	.
.	.	.	.	.	.	.	.	.	.	.	.	.	32e- 32g	.	32e-\ 32b-	.	32g 32ee-	.	.	.	.	.	.	.	32E-	.	.	.	.	.	.	.	.	.	.	.	.	.	.	.	.	.
.	.	.	.	.	.	.	.	.	.	.	.	.	32e- 32g	.	32e-\ 32b-	.	32g 32ee-	.	.	.	.	.	.	.	32E-	.	.	.	.	.	.	.	.	.	.	.	.	.	.	.	.	.
.	.	.	.	.	.	.	.	.	.	.	.	.	32e- 32g	.	32e-\ 32b-	.	32g 32ee-	.	.	.	.	.	.	.	32E-	.	.	.	.	.	.	.	.	.	.	.	.	.	.	.	.	.
.	.	.	.	.	.	.	.	.	.	.	.	.	32e- 32g	.	32e-\ 32b-	.	32g 32ee-	.	.	.	.	.	.	.	32E-	.	.	.	.	.	.	.	.	.	.	.	.	.	.	.	.	.
.	.	.	.	.	.	.	.	.	.	.	.	.	32e- 32g	.	32e-\ 32b-	.	32g 32ee-	.	.	.	.	.	.	.	32E-	.	.	.	.	.	.	.	.	.	.	.	.	.	.	.	.	.
.	.	.	.	.	.	.	.	.	.	.	.	.	32e- 32g	.	32e-\ 32b-	.	32g 32ee-	.	.	.	.	.	.	.	32E-	.	.	.	.	.	.	.	.	.	.	.	.	.	.	.	.	.
4B-\	.	2r	.	.	2r	.	.	2r	.	2r	.	.	32e- 32g	.	32e-\ 32b-	.	32g 32ee-	.	4B-\	.	4B-/	.	4b-\	.	32E-	.	.	.	.	.	.	.	.	.	.	.	.	.	.	.	.	.
.	.	.	.	.	.	.	.	.	.	.	.	.	32e- 32g	.	32e-\ 32b-	.	32g 32ee-	.	.	.	.	.	.	.	32E-	.	.	.	.	.	.	.	.	.	.	.	.	.	.	.	.	.
.	.	.	.	.	.	.	.	.	.	.	.	.	32e- 32g	.	32e-\ 32b-	.	32g 32ee-	.	.	.	.	.	.	.	32E-	.	.	.	.	.	.	.	.	.	.	.	.	.	.	.	.	.
.	.	.	.	.	.	.	.	.	.	.	.	.	32e- 32g	.	32e-\ 32b-	.	32g 32ee-	.	.	.	.	.	.	.	32E-	.	.	.	.	.	.	.	.	.	.	.	.	.	.	.	.	.
.	.	.	.	.	.	.	.	.	.	.	.	.	32e- 32g	.	32e-\ 32b-	.	32g 32ee-	.	.	.	.	.	.	.	32E-	.	.	.	.	.	.	.	.	.	.	.	.	.	.	.	.	.
.	.	.	.	.	.	.	.	.	.	.	.	.	32e- 32g	.	32e-\ 32b-	.	32g 32ee-	.	.	.	.	.	.	.	32E-	.	.	.	.	.	.	.	.	.	.	.	.	.	.	.	.	.
.	.	.	.	.	.	.	.	.	.	.	.	.	32e- 32g	.	32e-\ 32b-	.	32g 32ee-	.	.	.	.	.	.	.	32E-	.	.	.	.	.	.	.	.	.	.	.	.	.	.	.	.	.
.	.	.	.	.	.	.	.	.	.	.	.	.	32e- 32g	.	32e-\ 32b-	.	32g 32ee-	.	.	.	.	.	.	.	32E-	.	.	.	.	.	.	.	.	.	.	.	.	.	.	.	.	.
4G\	.	.	.	.	.	.	.	.	.	.	.	.	32e- 32g	.	32e-\ 32b-	.	32g 32ee-	.	4G\	.	4G/	.	4g\	.	32E-	.	.	.	.	.	.	.	.	.	.	.	.	.	.	.	.	.
.	.	.	.	.	.	.	.	.	.	.	.	.	32e- 32g	.	32e-\ 32b-	.	32g 32ee-	.	.	.	.	.	.	.	32E-	.	.	.	.	.	.	.	.	.	.	.	.	.	.	.	.	.
.	.	.	.	.	.	.	.	.	.	.	.	.	32e- 32g	.	32e-\ 32b-	.	32g 32ee-	.	.	.	.	.	.	.	32E-	.	.	.	.	.	.	.	.	.	.	.	.	.	.	.	.	.
.	.	.	.	.	.	.	.	.	.	.	.	.	32e- 32g	.	32e-\ 32b-	.	32g 32ee-	.	.	.	.	.	.	.	32E-	.	.	.	.	.	.	.	.	.	.	.	.	.	.	.	.	.
.	.	.	.	.	.	.	.	.	.	.	.	.	32e- 32g	.	32e-\ 32b-	.	32g 32ee-	.	.	.	.	.	.	.	32E-	.	.	.	.	.	.	.	.	.	.	.	.	.	.	.	.	.
.	.	.	.	.	.	.	.	.	.	.	.	.	32e- 32g	.	32e-\ 32b-	.	32g 32ee-	.	.	.	.	.	.	.	32E-	.	.	.	.	.	.	.	.	.	.	.	.	.	.	.	.	.
.	.	.	.	.	.	.	.	.	.	.	.	.	32e- 32g	.	32e-\ 32b-	.	32g 32ee-	.	.	.	.	.	.	.	32E-	.	.	.	.	.	.	.	.	.	.	.	.	.	.	.	.	.
.	.	.	.	.	.	.	.	.	.	.	.	.	32e- 32gJJJ	.	32e-\ 32b-JJJ	.	32g 32ee-JJJ	.	.	.	.	.	.	.	32E-JJJ	.	.	.	.	.	.	.	.	.	.	.	.	.	.	.	.	.
*	*	*	*	*	*	*	*	*	*	*	*	*	*Xtremolo	*	*Xtremolo	*	*Xtremolo	*	*	*	*	*	*	*	*Xtremolo	*	*	*	*	*	*	*	*	*	*	*	*	*	*	*	*	*
*	*	*	*	*	*	*	*	*	*	*	*	*	*	*	*	*	*	*	*	*	*	*	*	*	*	*	*v	*v	*	*	*	*	*	*	*	*	*	*	*	*	*	*
=36	=36	=36	=36	=36	=36	=36	=36	=36	=36	=36	=36	=36	=36	=36	=36	=36	=36	=36	=36	=36	=36	=36	=36	=36	=36	=36	=36	=36	=36	=36	=36	=36	=36	=36	=36	=36	=36	=36	=36	=36	=36
4E-\	.	1r	.	.	1r	.	.	1r	.	1r	.	.	4e-\ 4g	.	4e-/ 4b-	.	4g\ 4ee-	.	4E-\	.	4E-/	.	4e-\	.	4E-y\	.	1r	.	1r	.	4g/]	4e-\]	.	4ee-/]	4ee-\]	.	4bb-\]	4gg\]	.	4eee-\]	.
4r	.	.	.	.	.	.	.	.	.	.	.	.	4r	.	4r	.	4r	.	4r	.	4r	.	4r	.	4r	.	.	.	.	.	4r	4r	.	4r	4ryy	.	4r	4r	.	4r	.
2r	.	.	.	.	.	.	.	.	.	.	.	.	2r	.	2r	.	2r	.	2r	.	2r	.	2r	.	2r	.	.	.	.	.	2r	2r	.	2r	2ryy	.	2r	2r	.	2r	.
*	*	*	*	*	*	*	*	*	*	*	*	*	*	*	*	*	*	*	*	*	*	*	*	*	*	*	*	*	*	*	*v	*v	*	*	*	*	*v	*v	*	*	*
*	*	*	*	*	*	*	*	*	*	*	*	*	*	*	*	*	*	*	*	*	*	*	*	*	*	*	*	*	*	*	*	*	*v	*v	*	*	*	*	*
!!LO:PB:g=original
==	==	==	==	==	==	==	==	==	==	==	==	==	==	==	==	==	==	==	==	==	==	==	==	==	==	==	==	==	==	==	==	==	==	==	==	==	==	==
*-	*-	*-	*-	*-	*-	*-	*-	*-	*-	*-	*-	*-	*-	*-	*-	*-	*-	*-	*-	*-	*-	*-	*-	*-	*-	*-	*-	*-	*-	*-	*-	*-	*-	*-	*-	*-	*-	*-
!!!system-decoration: [(s1,s2,s3)](s4)(s5)(s6)(s7)[(s8,s9,s10)][(s11,s12,s13)][(s14,s15,s16,s17)](s18)
!!!RDF**kern: < = below
!!!RDF**kern: > = above
!!!RDF**kern: | = vertical stroke
!!!ENC: Marta Chmielewska
!!!END: 2021-04-26
!!!ENC: Anastazja Marusiak
!!!END: 2021-04-08
!!!YEC: Copyright 2022 Narodowy Instytut Fryderyka Chopina (https://polishscores.org)
!!!YEM: License CC-BY-4.0 (https://creativecommons.org/licenses/by/4.0)
